thearol/Bachelor-MM-/disagree_sensitivity_db_wide.csv
"","SubjectID_right_unique","SubjectID_left_unique","SubjectID_left","SubjectID_right","Gender_left","Gender_right","Age_left","Age_right","Image_1","Image_2","Prop_red_image_1","Prop_red_image_2","Prop_yellow_image_1","Prop_yellow_image_2","Prop_green_image_1","Prop_green_image_2","Prop_blue_image_1","Prop_blue_image_2","Response_left","Response_right","Joint_left","Joint_right","Correct_left","Correct_right","Correct_joint","RT_left","RT_right","RT_joint_left","RT_joint_right","Round","Block","group_id","diff","response_right_dummy","response_left_dummy","response_joint_dummy","chosen_leader","Leader_gender","Follower_gender","leader_behavior","Intercept_left","Slope_left","Intercept_right","Slope_right","skill_dif","Response_left_abs","Response_right_abs","conf_dif","z_Response_left","z_Response_right"
"1","1_1","3_1","3",1,"Male","Male",24,23,"Stim\r16y21g04b04.jpeg","Stim\r15y05g12b10.jpeg",16,15,21,5,4,12,4,10,3,-2,1,0,0,1,0,1.888,1.867,6.121,0,1,"rød","3_1",-1,0,1,1,"Left_lead","Male","Male","stick",0.326793111350138,0.201189750251438,0.259846981224718,0.19553414531727,1.02892387375612,3,2,-1.1201555707386,1.07789629368213,-0.962273742897504
"2","1_1","3_1","3",1,"Male","Male",24,23,"Stim\r20y14g02b19.jpeg","Stim\r21y01g04b27.jpeg",20,21,14,1,2,4,19,27,2,-1,0,-1,1,0,0,2.142,1.872,0,7.432,1,"rød","3_1",1,0,1,0,"Right_lead","Male","Male","stick",0.326793111350138,0.201189750251438,0.259846981224718,0.19553414531727,0.971889199489041,2,1,-0.657526978377018,0.671476379670833,-0.441513834976502
"3","1_1","3_1","3",1,"Male","Male",24,23,"Stim\r09y15g18b07.jpeg","Stim\r06y36g16b14.jpeg",9,6,15,36,18,16,7,14,-2,2,0,-1,1,0,1,1.693,2.856,0,4.031,1,"rød","3_1",-3,1,0,0,"Right_lead","Male","Male","surrender",0.326793111350138,0.201189750251438,0.259846981224718,0.19553414531727,0.971889199489041,2,2,-1.17455673915211,-0.954203276374342,1.1207658887865
"4","1_1","3_1","3",1,"Male","Male",24,23,"Stim\r08y23g10b29.jpeg","Stim\r10y02g36b05.jpeg",8,10,23,2,10,36,29,5,2,-1,-1,0,1,0,0,2.192,2.055,1.961,0,1,"rød","3_1",2,0,1,0,"Left_lead","Male","Male","surrender",0.326793111350138,0.201189750251438,0.259846981224718,0.19553414531727,1.02892387375612,2,1,-1.52085014438238,0.671476379670833,-0.441513834976502
"5","1_1","3_1","3",1,"Male","Male",24,23,"Stim\r11y26g25b38.jpeg","Stim\r15y16g12b03.jpeg",11,15,26,16,25,12,38,3,3,-2,0,-1,1,0,0,2.409,1.473,0,4.129,1,"rød","3_1",4,0,1,0,"Right_lead","Male","Male","stick",0.326793111350138,0.201189750251438,0.259846981224718,0.19553414531727,0.971889199489041,3,2,-0.892733140041096,1.07789629368213,-0.962273742897504
"6","1_1","3_1","3",1,"Male","Male",24,23,"Stim\r11y14g08b23.jpeg","Stim\r08y23g10b29.jpeg",11,8,14,23,8,10,23,29,-2,1,0,-1,1,0,1,2.381,1.775,0,4.168,1,"rød","3_1",-3,1,0,0,"Right_lead","Male","Male","surrender",0.326793111350138,0.201189750251438,0.259846981224718,0.19553414531727,0.971889199489041,2,1,-0.628803102778401,-0.954203276374342,0.600005980865502
"7","1_1","3_1","3",1,"Male","Male",24,23,"Stim\r07y02g03b06.jpeg","Stim\r14y12g04b29.jpeg",7,14,2,12,3,4,6,29,-2,2,1,0,0,1,1,1.989,2.701,4.514,0,1,"rød","3_1",7,1,0,1,"Left_lead","Male","Male","surrender",0.326793111350138,0.201189750251438,0.259846981224718,0.19553414531727,1.02892387375612,2,2,-0.851385009056167,-0.954203276374342,1.1207658887865
"8","1_1","3_1","3",1,"Male","Male",24,23,"Stim\r13y33g08b23.jpeg","Stim\r11y13g22b35.jpeg",13,11,33,13,8,22,23,35,2,-1,1,0,0,1,0,1.078,1.825,1.666,0,1,"rød","3_1",-2,0,1,1,"Left_lead","Male","Male","stick",0.326793111350138,0.201189750251438,0.259846981224718,0.19553414531727,1.02892387375612,2,1,-1.52085014438238,0.671476379670833,-0.441513834976502
"9","1_1","3_1","3",1,"Male","Male",24,23,"Stim\r07y14g27b22.jpeg","Stim\r09y06g26b32.jpeg",7,9,14,6,27,26,22,32,2,-2,0,-1,1,0,0,1.699,1.592,0,2.427,1,"rød","3_1",2,0,1,0,"Right_lead","Male","Male","stick",0.326793111350138,0.201189750251438,0.259846981224718,0.19553414531727,0.971889199489041,2,2,-1.43307161953965,0.671476379670833,-0.962273742897504
"10","1_1","3_1","3",1,"Male","Male",24,23,"Stim\r08y09g09b11.jpeg","Stim\r09y06g26b32.jpeg",8,9,9,6,9,26,11,32,2,-2,-1,0,1,0,0,1.457,1.707,1.951,0,1,"rød","3_1",1,0,1,0,"Left_lead","Male","Male","surrender",0.326793111350138,0.201189750251438,0.259846981224718,0.19553414531727,1.02892387375612,2,2,-0.697801830951917,0.671476379670833,-0.962273742897504
"11","1_1","3_1","3",1,"Male","Male",24,23,"Stim\r14y12g04b29.jpeg","Stim\r13y33g08b23.jpeg",14,13,12,33,4,8,29,23,2,-2,-1,0,0,1,1,1.322,1.768,3.525,0,1,"rød","3_1",-1,0,1,0,"Left_lead","Male","Male","surrender",0.326793111350138,0.201189750251438,0.259846981224718,0.19553414531727,1.02892387375612,2,2,-0.697801830951917,0.671476379670833,-0.962273742897504
"12","1_1","3_1","3",1,"Male","Male",24,23,"Stim\r22y35g09b11.jpeg","Stim\r18y19g14b27.jpeg",22,18,35,19,9,14,11,27,-2,2,0,1,1,0,0,1.011,1.543,0,2.397,1,"rød","3_1",-4,1,0,1,"Right_lead","Male","Male","stick",0.326793111350138,0.201189750251438,0.259846981224718,0.19553414531727,0.971889199489041,2,2,-1.17455673915211,-0.954203276374342,1.1207658887865
"13","1_1","3_1","3",1,"Male","Male",24,23,"Stim\r21y03g15b37.jpeg","Stim\r18y13g28b06.jpeg",21,18,3,13,15,28,37,6,3,-2,1,0,0,1,0,1.607,1.42,1.824,0,1,"rød","3_1",-3,0,1,1,"Left_lead","Male","Male","stick",0.326793111350138,0.201189750251438,0.259846981224718,0.19553414531727,1.02892387375612,3,2,-1.1201555707386,1.07789629368213,-0.962273742897504
"14","1_1","3_1","3",1,"Male","Male",24,23,"Stim\r18y19g14b27.jpeg","Stim\r19y10g06b15.jpeg",18,19,19,10,14,6,27,15,1,-2,-1,0,1,0,0,1.577,0.94,1.044,0,1,"rød","3_1",1,0,1,0,"Left_lead","Male","Male","surrender",0.326793111350138,0.201189750251438,0.259846981224718,0.19553414531727,1.02892387375612,1,2,-0.275448091165231,0.265056465659539,-0.962273742897504
"15","1_1","3_1","3",1,"Male","Male",24,23,"Stim\r14y08g21b39.jpeg","Stim\r12y12g14b26.jpeg",14,12,8,12,21,14,39,26,2,-2,-1,0,0,1,1,2.765,1.178,1.33,0,1,"rød","3_1",-2,0,1,0,"Left_lead","Male","Male","surrender",0.326793111350138,0.201189750251438,0.259846981224718,0.19553414531727,1.02892387375612,2,2,-0.697801830951917,0.671476379670833,-0.962273742897504
"16","1_1","3_1","3",1,"Male","Male",24,23,"Stim\r03y03g02b05.jpeg","Stim\r04y28g27b06.jpeg",3,4,3,28,2,27,5,6,4,-2,1,0,1,0,1,1.327,1.206,1.14,0,1,"rød","3_1",1,0,1,1,"Left_lead","Male","Male","stick",0.326793111350138,0.201189750251438,0.259846981224718,0.19553414531727,1.02892387375612,4,2,-1.54250931052529,1.48431620769342,-0.962273742897504
"17","1_1","3_1","3",1,"Male","Male",24,23,"Stim\r12y09g30b18.jpeg","Stim\r20y14g02b19.jpeg",12,20,9,14,30,2,18,19,3,-2,0,1,1,0,1,1.325,1.271,0,1.764,1,"blå","3_1",1,0,1,1,"Right_lead","Male","Male","surrender",0.326793111350138,0.201189750251438,0.259846981224718,0.19553414531727,0.971889199489041,3,2,-0.892733140041096,1.07789629368213,-0.962273742897504
"18","1_1","3_1","3",1,"Male","Male",24,23,"Stim\r12y07g07b17.jpeg","Stim\r09y17g32b21.jpeg",12,9,7,17,7,32,17,21,-2,3,1,0,0,1,1,2.47,3.249,1.474,0,1,"blå","3_1",4,1,0,1,"Left_lead","Male","Male","surrender",0.326793111350138,0.201189750251438,0.259846981224718,0.19553414531727,1.02892387375612,2,3,-0.581290454459038,-0.954203276374342,1.64152579670751
"19","1_1","3_1","3",1,"Male","Male",24,23,"Stim\r21y31g06b08.jpeg","Stim\r22y35g09b11.jpeg",21,22,31,35,6,9,8,11,4,-2,1,0,1,0,1,1.193,1.087,1.563,0,1,"blå","3_1",3,0,1,1,"Left_lead","Male","Male","stick",0.326793111350138,0.201189750251438,0.259846981224718,0.19553414531727,1.02892387375612,4,2,-1.54250931052529,1.48431620769342,-0.962273742897504
"20","1_1","3_1","3",1,"Male","Male",24,23,"Stim\r13y33g08b23.jpeg","Stim\r17y22g16b15.jpeg",13,17,33,22,8,16,23,15,-1,2,1,0,1,0,0,2.316,3.728,1.064,0,1,"blå","3_1",-8,1,0,1,"Left_lead","Male","Male","surrender",0.326793111350138,0.201189750251438,0.259846981224718,0.19553414531727,1.02892387375612,1,2,-0.488758060754466,-0.547783362363048,1.1207658887865
"21","1_1","3_1","3",1,"Male","Male",24,23,"Stim\r11y10g06b19.jpeg","Stim\r09y17g32b21.jpeg",11,9,10,17,6,32,19,21,4,-2,1,0,1,0,1,1.103,0.949,1.025,0,1,"blå","3_1",2,0,1,1,"Left_lead","Male","Male","stick",0.326793111350138,0.201189750251438,0.259846981224718,0.19553414531727,1.02892387375612,4,2,-1.54250931052529,1.48431620769342,-0.962273742897504
"22","1_1","3_1","3",1,"Male","Male",24,23,"Stim\r10y02g36b05.jpeg","Stim\r21y31g06b08.jpeg",10,21,2,31,36,6,5,8,2,-2,-1,0,1,0,0,1.329,1.975,3.581,0,1,"blå","3_1",3,0,1,0,"Left_lead","Male","Male","surrender",0.326793111350138,0.201189750251438,0.259846981224718,0.19553414531727,1.02892387375612,2,2,-0.697801830951917,0.671476379670833,-0.962273742897504
"23","1_1","3_1","3",1,"Male","Male",24,23,"Stim\r09y06g26b32.jpeg","Stim\r03y11g01b26.jpeg",9,3,6,11,26,1,32,26,3,-2,1,0,0,1,0,1.549,2.378,1.316,0,1,"blå","3_1",-6,0,1,1,"Left_lead","Male","Male","stick",0.326793111350138,0.201189750251438,0.259846981224718,0.19553414531727,1.02892387375612,3,2,-1.1201555707386,1.07789629368213,-0.962273742897504
"24","1_1","3_1","3",1,"Male","Male",24,23,"Stim\r09y17g32b21.jpeg","Stim\r20y14g02b19.jpeg",9,20,17,14,32,2,21,19,-3,1,-1,0,1,0,1,1.293,1.823,1.035,0,1,"blå","3_1",-2,1,0,0,"Left_lead","Male","Male","stick",0.326793111350138,0.201189750251438,0.259846981224718,0.19553414531727,1.02892387375612,3,1,-2.26768271280055,-1.36062319038564,0.600005980865502
"25","1_1","3_1","3",1,"Male","Male",24,23,"Stim\r03y06g12b09.jpeg","Stim\r16y09g06b10.jpeg",3,16,6,9,12,6,9,10,-1,3,0,-1,0,1,0,1.07,1.38,0,5.163,1,"blå","3_1",1,1,0,0,"Right_lead","Male","Male","surrender",0.326793111350138,0.201189750251438,0.259846981224718,0.19553414531727,0.971889199489041,1,3,-2.99666968639981,-0.547783362363048,1.64152579670751
"26","1_1","3_1","3",1,"Male","Male",24,23,"Stim\r10y27g22b14.jpeg","Stim\r22y35g09b11.jpeg",10,22,27,35,22,9,14,11,2,-2,0,-1,0,1,1,1.15,2.212,0,4.827,1,"blå","3_1",-3,0,1,0,"Right_lead","Male","Male","stick",0.326793111350138,0.201189750251438,0.259846981224718,0.19553414531727,0.971889199489041,2,2,-1.43307161953965,0.671476379670833,-0.962273742897504
"27","1_1","3_1","3",1,"Male","Male",24,23,"Stim\r10y03g03b07.jpeg","Stim\r08y09g09b11.jpeg",10,8,3,9,3,9,7,11,-1,2,0,1,0,1,1,2.094,1.491,0,2.682,1,"blå","3_1",4,1,0,1,"Right_lead","Male","Male","stick",0.326793111350138,0.201189750251438,0.259846981224718,0.19553414531727,0.971889199489041,1,2,-2.04600206174883,-0.547783362363048,1.1207658887865
"28","1_1","3_1","3",1,"Male","Male",24,23,"Stim\r14y08g21b39.jpeg","Stim\r05y28g23b30.jpeg",14,5,8,28,21,23,39,30,2,-3,0,-1,0,1,1,1.401,1.326,0,2.181,1,"blå","3_1",-9,0,1,0,"Right_lead","Male","Male","stick",0.326793111350138,0.201189750251438,0.259846981224718,0.19553414531727,0.971889199489041,2,3,-2.20861626070229,0.671476379670833,-1.48303365081851
"29","1_1","3_1","3",1,"Male","Male",24,23,"Stim\r12y07g16b25.jpeg","Stim\r14y12g04b29.jpeg",12,14,7,12,16,4,25,29,4,-2,0,1,1,0,1,1.249,3.545,0,1.554,1,"blå","3_1",4,0,1,1,"Right_lead","Male","Male","surrender",0.326793111350138,0.201189750251438,0.259846981224718,0.19553414531727,0.971889199489041,4,2,-0.648294304077462,1.48431620769342,-0.962273742897504
"30","1_1","3_1","3",1,"Male","Male",24,23,"Stim\r16y09g06b10.jpeg","Stim\r21y31g06b08.jpeg",16,21,9,31,6,6,10,8,1,-2,-1,0,0,1,1,0.987,1.214,1.848,0,1,"blå","3_1",-2,0,1,0,"Left_lead","Male","Male","surrender",0.326793111350138,0.201189750251438,0.259846981224718,0.19553414531727,1.02892387375612,1,2,-0.275448091165231,0.265056465659539,-0.962273742897504
"31","1_1","3_1","3",1,"Male","Male",24,23,"Stim\r06y14g31b25.jpeg","Stim\r09y15g18b07.jpeg",6,9,14,15,31,18,25,7,3,-1,1,0,1,0,1,1.654,2.367,1,0,1,"gul","3_1",1,0,1,1,"Left_lead","Male","Male","stick",0.326793111350138,0.201189750251438,0.259846981224718,0.19553414531727,1.02892387375612,3,1,-2.44136470545593,1.07789629368213,-0.441513834976502
"32","1_1","3_1","3",1,"Male","Male",24,23,"Stim\r06y19g29b08.jpeg","Stim\r22y23g20b06.jpeg",6,22,19,23,29,20,8,6,2,-3,-1,0,1,0,0,1.066,1.379,1.032,0,1,"gul","3_1",4,0,1,0,"Left_lead","Male","Male","surrender",0.326793111350138,0.201189750251438,0.259846981224718,0.19553414531727,1.02892387375612,2,3,-0.452772180388649,0.671476379670833,-1.48303365081851
"33","1_1","3_1","3",1,"Male","Male",24,23,"Stim\r08y23g10b29.jpeg","Stim\r07y14g27b22.jpeg",8,7,23,14,10,27,29,22,2,-1,0,1,0,1,0,1.37,1.299,0,3.06,1,"gul","3_1",-9,0,1,1,"Right_lead","Male","Male","surrender",0.326793111350138,0.201189750251438,0.259846981224718,0.19553414531727,0.971889199489041,2,1,-0.657526978377018,0.671476379670833,-0.441513834976502
"34","1_1","3_1","3",1,"Male","Male",24,23,"Stim\r09y15g18b07.jpeg","Stim\r12y07g07b17.jpeg",9,12,15,7,18,7,7,17,-2,2,0,1,1,0,0,1.208,2.054,0,4.292,1,"gul","3_1",-8,1,0,1,"Right_lead","Male","Male","stick",0.326793111350138,0.201189750251438,0.259846981224718,0.19553414531727,0.971889199489041,2,2,-1.17455673915211,-0.954203276374342,1.1207658887865
"35","1_1","3_1","3",1,"Male","Male",24,23,"Stim\r19y10g06b15.jpeg","Stim\r14y08g21b39.jpeg",19,14,10,8,6,21,15,39,-1,1,0,-1,1,0,1,1.079,1.874,0,3.743,1,"gul","3_1",-2,1,0,0,"Right_lead","Male","Male","surrender",0.326793111350138,0.201189750251438,0.259846981224718,0.19553414531727,0.971889199489041,1,1,-1.09533443709786,-0.547783362363048,0.600005980865502
"36","1_1","3_1","3",1,"Male","Male",24,23,"Stim\r04y39g24b15.jpeg","Stim\r13y33g08b23.jpeg",4,13,39,33,24,8,15,23,-4,3,-1,0,1,0,1,1.042,1.554,4.111,0,1,"gul","3_1",-6,1,0,0,"Left_lead","Male","Male","stick",0.326793111350138,0.201189750251438,0.259846981224718,0.19553414531727,1.02892387375612,4,3,-1.07646380455377,-1.76704310439693,1.64152579670751
"37","1_1","3_1","3",1,"Male","Male",24,23,"Stim\r09y02g05b02.jpeg","Stim\r03y06g12b09.jpeg",9,3,2,6,5,12,2,9,-1,1,1,0,0,1,1,1.305,1.334,1.346,0,1,"gul","3_1",4,1,0,1,"Left_lead","Male","Male","surrender",0.326793111350138,0.201189750251438,0.259846981224718,0.19553414531727,1.02892387375612,1,1,-0.912963170088531,-0.547783362363048,0.600005980865502
"38","1_1","3_1","3",1,"Male","Male",24,23,"Stim\r11y10g06b19.jpeg","Stim\r05y09g02b34.jpeg",11,5,10,9,6,2,19,34,-2,1,-1,0,1,0,1,1.349,1.844,1.659,0,1,"grøn","3_1",-4,1,0,0,"Left_lead","Male","Male","stick",0.326793111350138,0.201189750251438,0.259846981224718,0.19553414531727,1.02892387375612,2,1,-1.59032294144454,-0.954203276374342,0.600005980865502
"39","1_1","3_1","3",1,"Male","Male",24,23,"Stim\r20y14g02b19.jpeg","Stim\r07y02g03b06.jpeg",20,7,14,2,2,3,19,6,-1,2,0,1,0,1,1,0.946,1.392,0,3.265,1,"grøn","3_1",1,1,0,1,"Right_lead","Male","Male","stick",0.326793111350138,0.201189750251438,0.259846981224718,0.19553414531727,0.971889199489041,1,2,-2.04600206174883,-0.547783362363048,1.1207658887865
"40","1_1","3_1","3",1,"Male","Male",24,23,"Stim\r09y15g18b07.jpeg","Stim\r03y06g12b09.jpeg",9,3,15,6,18,12,7,9,-4,1,0,-1,1,0,1,1.008,0.854,0,1.531,1,"grøn","3_1",-6,1,0,0,"Right_lead","Male","Male","surrender",0.326793111350138,0.201189750251438,0.259846981224718,0.19553414531727,0.971889199489041,4,1,-0.339553675500337,-1.76704310439693,0.600005980865502
"41","1_1","3_1","3",1,"Male","Male",24,23,"Stim\r15y05g12b10.jpeg","Stim\r08y23g10b29.jpeg",15,8,5,23,12,10,10,29,-3,2,-1,0,1,0,1,1.011,1.223,1.38,0,1,"grøn","3_1",-2,1,0,0,"Left_lead","Male","Male","stick",0.326793111350138,0.201189750251438,0.259846981224718,0.19553414531727,1.02892387375612,3,2,-1.21401195735787,-1.36062319038564,1.1207658887865
"42","1_1","3_1","3",1,"Male","Male",24,23,"Stim\r19y10g06b15.jpeg","Stim\r10y13g07b36.jpeg",19,10,10,13,6,7,15,36,-1,2,0,1,0,1,1,1.203,1.201,0,3.777,1,"grøn","3_1",1,1,0,1,"Right_lead","Male","Male","stick",0.326793111350138,0.201189750251438,0.259846981224718,0.19553414531727,0.971889199489041,1,2,-2.04600206174883,-0.547783362363048,1.1207658887865
"43","1_1","3_1","3",1,"Male","Male",24,23,"Stim\r13y33g08b23.jpeg","Stim\r06y36g16b14.jpeg",13,6,33,36,8,16,23,14,-1,1,0,-1,0,1,0,2.091,2.021,0,3.893,1,"grøn","3_1",8,1,0,0,"Right_lead","Male","Male","surrender",0.326793111350138,0.201189750251438,0.259846981224718,0.19553414531727,0.971889199489041,1,1,-1.09533443709786,-0.547783362363048,0.600005980865502
"44","1_1","3_1","3",1,"Male","Male",24,23,"Stim\r16y21g04b04.jpeg","Stim\r11y10g06b19.jpeg",16,11,21,10,4,6,4,19,-2,2,0,-1,0,1,0,1.27,1.25,0,3.656,1,"grøn","3_1",2,1,0,0,"Right_lead","Male","Male","surrender",0.326793111350138,0.201189750251438,0.259846981224718,0.19553414531727,0.971889199489041,2,2,-1.17455673915211,-0.954203276374342,1.1207658887865
"45","1_1","3_1","3",1,"Male","Male",24,23,"Stim\r07y06g08b05.jpeg","Stim\r16y09g06b10.jpeg",7,16,6,9,8,6,5,10,-4,1,-1,0,1,0,1,1.435,2.048,0.868,0,1,"grøn","3_1",-2,1,0,0,"Left_lead","Male","Male","stick",0.326793111350138,0.201189750251438,0.259846981224718,0.19553414531727,1.02892387375612,4,1,-2.94504248415655,-1.76704310439693,0.600005980865502
"46","1_1","3_1","3",1,"Male","Male",24,23,"Stim\r02y19g24b04.jpeg","Stim\r10y27g22b14.jpeg",2,10,19,27,24,22,4,14,-2,1,0,-1,1,0,1,1.173,1.483,0,3.596,1,"grøn","3_1",-2,1,0,0,"Right_lead","Male","Male","surrender",0.326793111350138,0.201189750251438,0.259846981224718,0.19553414531727,0.971889199489041,2,1,-0.628803102778401,-0.954203276374342,0.600005980865502
"47","1_2","4_2","4",1,"Female","Male",23,23,"Stim\r21y31g06b08.jpeg","Stim\r20y14g02b19.jpeg",21,20,31,14,6,2,8,19,3,-3,0,1,0,1,0,1.192,3.086,0,3.017,2,"rød","4_1",-1,0,1,1,"Right_lead","Male","Female","surrender",0.288760199294387,0.218347366955955,0.279207112975882,0.201430190161898,0.922521727511974,3,3,-0.98300414172629,1.204789482217,-1.18431305092758
"48","1_2","4_2","4",1,"Female","Male",23,23,"Stim\r14y10g15b15.jpeg","Stim\r21y24g16b04.jpeg",14,21,10,24,15,16,15,4,2,-2,0,-1,1,0,0,1.523,1.554,0,2.404,2,"rød","4_1",7,0,1,0,"Right_lead","Male","Female","stick",0.288760199294387,0.218347366955955,0.279207112975882,0.201430190161898,0.922521727511974,2,2,-1.01149701539952,0.780567833549042,-0.789542033951723
"49","1_2","4_2","4",1,"Female","Male",23,23,"Stim\r10y27g22b14.jpeg","Stim\r13y33g08b23.jpeg",10,13,27,33,22,8,14,23,3,-2,1,0,1,0,1,2.001,1.847,2.105,0,2,"rød","4_1",3,0,1,1,"Left_lead","Female","Male","stick",0.288760199294387,0.218347366955955,0.279207112975882,0.201430190161898,1.08398530915579,3,2,-1.52593456764668,1.204789482217,-0.789542033951723
"50","1_2","4_2","4",1,"Female","Male",23,23,"Stim\r13y24g05b28.jpeg","Stim\r14y10g15b15.jpeg",13,14,24,10,5,15,28,15,4,-2,0,1,1,0,1,1.537,1.95,0,1.34,2,"rød","4_1",1,0,1,1,"Right_lead","Male","Female","surrender",0.288760199294387,0.218347366955955,0.279207112975882,0.201430190161898,0.922521727511974,4,2,-0.484675653212268,1.62901113088496,-0.789542033951723
"51","1_2","4_2","4",1,"Female","Male",23,23,"Stim\r05y40g33b16.jpeg","Stim\r04y16g13b13.jpeg",5,4,40,16,33,13,16,13,2,-1,1,0,0,1,0,1.47,2.899,3.892,0,2,"rød","4_1",-1,0,1,1,"Left_lead","Female","Male","stick",0.288760199294387,0.218347366955955,0.279207112975882,0.201430190161898,1.08398530915579,2,1,-1.97726732709147,0.780567833549042,-0.394771016975861
"52","1_2","4_2","4",1,"Female","Male",23,23,"Stim\r11y14g08b23.jpeg","Stim\r09y15g18b07.jpeg",11,9,14,15,8,18,23,7,-2,2,-1,0,1,0,1,1.539,2.302,3.311,0,2,"rød","4_1",-2,1,0,0,"Left_lead","Female","Male","stick",0.288760199294387,0.218347366955955,0.279207112975882,0.201430190161898,1.08398530915579,2,2,-1.16056995285804,-0.916318761122789,0.789542033951723
"53","1_2","4_2","4",1,"Female","Male",23,23,"Stim\r20y04g39b23.jpeg","Stim\r14y10g15b15.jpeg",20,14,4,10,39,15,23,15,-1,3,0,1,1,0,0,1.342,1.971,0,2.794,2,"rød","4_1",-6,1,0,1,"Right_lead","Male","Female","stick",0.288760199294387,0.218347366955955,0.279207112975882,0.201430190161898,0.922521727511974,1,3,-2.4066653125023,-0.492097112454831,1.18431305092758
"54","1_2","4_2","4",1,"Female","Male",23,23,"Stim\r10y07g11b10.jpeg","Stim\r10y03g03b07.jpeg",10,10,7,3,11,3,10,7,-2,3,1,0,1,0,0,1.933,2.262,3.532,0,2,"blå","4_1",-3,1,0,1,"Left_lead","Female","Male","surrender",0.288760199294387,0.218347366955955,0.279207112975882,0.201430190161898,1.08398530915579,2,3,-0.773713301905358,-0.916318761122789,1.18431305092758
"55","1_2","4_2","4",1,"Female","Male",23,23,"Stim\r21y01g04b27.jpeg","Stim\r15y17g24b30.jpeg",21,15,1,17,4,24,27,30,1,-3,-1,0,1,0,0,1.821,1.85,5.512,0,2,"blå","4_1",3,0,1,0,"Left_lead","Female","Male","surrender",0.288760199294387,0.218347366955955,0.279207112975882,0.201430190161898,1.08398530915579,1,3,-0.300888506296528,0.356346184881085,-1.18431305092758
"56","1_2","4_2","4",1,"Female","Male",23,23,"Stim\r13y33g08b23.jpeg","Stim\r03y11g01b26.jpeg",13,3,33,11,8,1,23,26,2,-3,0,1,1,0,1,1.247,2.593,0,2.376,2,"blå","4_1",3,0,1,1,"Right_lead","Male","Female","surrender",0.288760199294387,0.218347366955955,0.279207112975882,0.201430190161898,0.922521727511974,2,3,-1.51724552309927,0.780567833549042,-1.18431305092758
"57","1_2","4_2","4",1,"Female","Male",23,23,"Stim\r12y09g30b18.jpeg","Stim\r11y10g06b19.jpeg",12,11,9,10,30,6,18,19,4,-3,1,0,1,0,1,1.703,1.506,1.51,0,2,"blå","4_1",1,0,1,1,"Left_lead","Female","Male","stick",0.288760199294387,0.218347366955955,0.279207112975882,0.201430190161898,1.08398530915579,4,3,-1.37549031449841,1.62901113088496,-1.18431305092758
"58","1_2","4_2","4",1,"Female","Male",23,23,"Stim\r22y23g20b06.jpeg","Stim\r16y09g06b10.jpeg",22,16,23,9,20,6,6,10,1,-3,0,-1,1,0,0,2.035,2.115,0,2.215,2,"blå","4_1",4,0,1,0,"Right_lead","Male","Female","stick",0.288760199294387,0.218347366955955,0.279207112975882,0.201430190161898,0.922521727511974,1,3,-3.32349019345555,0.356346184881085,-1.18431305092758
"59","1_2","4_2","4",1,"Female","Male",23,23,"Stim\r22y35g09b11.jpeg","Stim\r13y33g08b23.jpeg",22,13,35,33,9,8,11,23,-1,2,1,0,1,0,0,2.159,1.371,4.01,0,2,"gul","4_1",-2,1,0,1,"Left_lead","Female","Male","surrender",0.288760199294387,0.218347366955955,0.279207112975882,0.201430190161898,1.08398530915579,1,2,-0.623269048757094,-0.492097112454831,0.789542033951723
"60","1_2","4_2","4",1,"Female","Male",23,23,"Stim\r09y17g32b21.jpeg","Stim\r13y21g23b09.jpeg",9,13,17,21,32,23,21,9,-4,3,0,-1,0,1,0,2.293,1.472,0,1.642,2,"gul","4_1",4,1,0,0,"Right_lead","Male","Female","surrender",0.288760199294387,0.218347366955955,0.279207112975882,0.201430190161898,0.922521727511974,4,3,-0.671089365986217,-1.7647620584587,1.18431305092758
"61","1_2","4_2","4",1,"Female","Male",23,23,"Stim\r09y15g18b07.jpeg","Stim\r17y12g19b18.jpeg",9,17,15,12,18,19,7,18,-2,2,-1,0,1,0,1,1.804,4.033,4.565,0,2,"gul","4_1",-3,1,0,0,"Left_lead","Female","Male","stick",0.288760199294387,0.218347366955955,0.279207112975882,0.201430190161898,1.08398530915579,2,2,-1.16056995285804,-0.916318761122789,0.789542033951723
"62","1_2","4_2","4",1,"Female","Male",23,23,"Stim\r10y03g03b07.jpeg","Stim\r03y06g12b09.jpeg",10,3,3,6,3,12,7,9,2,-2,-1,0,1,0,0,2.34,1.803,2.205,0,2,"gul","4_1",3,0,1,0,"Left_lead","Female","Male","surrender",0.288760199294387,0.218347366955955,0.279207112975882,0.201430190161898,1.08398530915579,2,2,-0.988633663545735,0.780567833549042,-0.789542033951723
"63","1_2","4_2","4",1,"Female","Male",23,23,"Stim\r04y16g13b13.jpeg","Stim\r17y20g40b07.jpeg",4,17,16,20,13,40,13,7,-1,3,0,1,0,1,1,2.162,1.409,0,2.149,2,"gul","4_1",4,1,0,1,"Right_lead","Male","Female","stick",0.288760199294387,0.218347366955955,0.279207112975882,0.201430190161898,0.922521727511974,1,3,-2.4066653125023,-0.492097112454831,1.18431305092758
"64","1_2","4_2","4",1,"Female","Male",23,23,"Stim\r03y11g01b26.jpeg","Stim\r08y12g20b03.jpeg",3,8,11,12,1,20,26,3,1,-2,1,0,1,0,1,1.976,1.439,1.407,0,2,"gul","4_1",1,0,1,1,"Left_lead","Female","Male","stick",0.288760199294387,0.218347366955955,0.279207112975882,0.201430190161898,1.08398530915579,1,2,-0.451332759444792,0.356346184881085,-0.789542033951723
"65","1_2","4_2","4",1,"Female","Male",23,23,"Stim\r17y07g07b24.jpeg","Stim\r10y03g03b07.jpeg",17,10,7,3,7,3,24,7,-4,2,-1,0,1,0,1,1.57,2.632,1.267,0,2,"grøn","4_1",-4,1,0,0,"Left_lead","Female","Male","stick",0.288760199294387,0.218347366955955,0.279207112975882,0.201430190161898,1.08398530915579,4,2,-2.23517176105992,-1.7647620584587,0.789542033951723
"66","1_2","4_2","4",1,"Female","Male",23,23,"Stim\r14y08g21b39.jpeg","Stim\r08y12g20b03.jpeg",14,8,8,12,21,20,39,3,1,-2,1,0,0,1,0,1.022,1.334,1.394,0,2,"grøn","4_1",-1,0,1,1,"Left_lead","Female","Male","stick",0.288760199294387,0.218347366955955,0.279207112975882,0.201430190161898,1.08398530915579,1,2,-0.451332759444792,0.356346184881085,-0.789542033951723
"67","1_2","4_2","4",1,"Female","Male",23,23,"Stim\r21y24g16b04.jpeg","Stim\r09y15g18b07.jpeg",21,9,24,15,16,18,4,7,2,-2,0,1,1,0,1,1.148,4.692,0,2.5,2,"grøn","4_1",2,0,1,1,"Right_lead","Male","Female","surrender",0.288760199294387,0.218347366955955,0.279207112975882,0.201430190161898,0.922521727511974,2,2,-1.01149701539952,0.780567833549042,-0.789542033951723
"68","1_2","4_2","4",1,"Female","Male",23,23,"Stim\r07y02g03b06.jpeg","Stim\r10y37g07b02.jpeg",7,10,2,37,3,7,6,2,-2,3,-1,0,0,1,0,1.665,3.007,2.355,0,2,"grøn","4_1",4,1,0,0,"Left_lead","Female","Male","stick",0.288760199294387,0.218347366955955,0.279207112975882,0.201430190161898,1.08398530915579,2,3,-0.773713301905358,-0.916318761122789,1.18431305092758
"69","1_2","4_2","4",1,"Female","Male",23,23,"Stim\r10y07g11b10.jpeg","Stim\r18y19g14b27.jpeg",10,18,7,19,11,14,10,27,-2,3,1,0,0,1,1,1.827,1.573,2.359,0,2,"grøn","4_1",3,1,0,1,"Left_lead","Female","Male","surrender",0.288760199294387,0.218347366955955,0.279207112975882,0.201430190161898,1.08398530915579,2,3,-0.773713301905358,-0.916318761122789,1.18431305092758
"70","1_2","4_2","4",1,"Female","Male",23,23,"Stim\r12y12g14b26.jpeg","Stim\r11y14g08b23.jpeg",12,11,12,14,14,8,26,23,-2,1,0,-1,1,0,1,1.432,2.695,0,2.127,2,"grøn","4_1",-6,1,0,0,"Right_lead","Male","Female","surrender",0.288760199294387,0.218347366955955,0.279207112975882,0.201430190161898,0.922521727511974,2,1,-0.430822802855349,-0.916318761122789,0.394771016975861
"71","1_2","4_2","4",1,"Female","Male",23,23,"Stim\r07y14g27b22.jpeg","Stim\r12y09g30b18.jpeg",7,12,14,9,27,30,22,18,-1,3,1,0,0,1,1,1.625,3.323,2.853,0,2,"grøn","4_1",3,1,0,1,"Left_lead","Female","Male","surrender",0.288760199294387,0.218347366955955,0.279207112975882,0.201430190161898,1.08398530915579,1,3,-0.415512699171396,-0.492097112454831,1.18431305092758
"72","11_1","9_1","9",11,"Male","Male",23,23,"Stim\r13y24g05b28.jpeg","Stim\r21y31g06b08.jpeg",13,21,24,31,5,6,28,8,3,-2,1,0,1,0,1,1.64,2.201,2.945,0,1,"rød","9_11",8,0,1,1,"Left_lead","Male","Male","stick",0.191774498901944,0.226543558617649,0.174459260801424,0.207588984760454,1.09130818708453,3,2,-1.1022070347821,0.760966137271426,-0.690402177864762
"73","11_1","9_1","9",11,"Male","Male",23,23,"Stim\r01y27g01b01.jpeg","Stim\r04y39g24b15.jpeg",1,4,27,39,1,24,1,15,-3,2,0,1,0,1,1,9.674,2.235,0,5.264,1,"rød","9_11",3,1,0,1,"Right_lead","Male","Male","stick",0.191774498901944,0.226543558617649,0.174459260801424,0.207588984760454,0.916331437658813,3,2,-0.615311525548008,-0.924030309543875,0.568566499418039
"74","11_1","9_1","9",11,"Male","Male",23,23,"Stim\r14y10g15b15.jpeg","Stim\r15y05g12b10.jpeg",14,15,10,5,15,12,15,10,4,-4,1,0,1,0,1,1.404,2.117,2.386,0,1,"rød","9_11",1,0,1,1,"Left_lead","Male","Male","stick",0.191774498901944,0.226543558617649,0.174459260801424,0.207588984760454,1.09130818708453,4,4,-0.789309433332972,1.04179887840731,-1.31988651650616
"75","11_1","9_1","9",11,"Male","Male",23,23,"Stim\r02y19g24b04.jpeg","Stim\r04y39g24b15.jpeg",2,4,19,39,24,24,4,15,-4,3,0,1,0,1,1,2.177,1.789,0,1.975,1,"rød","9_11",2,1,0,1,"Right_lead","Male","Male","stick",0.191774498901944,0.226543558617649,0.174459260801424,0.207588984760454,0.916331437658813,4,3,-0.733119559306259,-1.20486305067976,0.88330866873874
"76","11_1","9_1","9",11,"Male","Male",23,23,"Stim\r21y31g06b08.jpeg","Stim\r17y11g38b07.jpeg",21,17,31,11,6,38,8,7,-4,4,0,1,1,0,0,1.773,1.369,0,1.548,1,"rød","9_11",-4,1,0,1,"Right_lead","Male","Male","stick",0.191774498901944,0.226543558617649,0.174459260801424,0.207588984760454,0.916331437658813,4,4,-0.994346068944122,-1.20486305067976,1.19805083805944
"77","11_1","9_1","9",11,"Male","Male",23,23,"Stim\r05y40g33b16.jpeg","Stim\r08y23g10b29.jpeg",5,8,40,23,33,10,16,29,4,-2,1,0,1,0,1,3.141,2.354,3.796,0,1,"rød","9_11",3,0,1,1,"Left_lead","Male","Male","stick",0.191774498901944,0.226543558617649,0.174459260801424,0.207588984760454,1.09130818708453,4,2,-1.50897391666598,1.04179887840731,-0.690402177864762
"78","11_1","9_1","9",11,"Male","Male",23,23,"Stim\r10y37g07b02.jpeg","Stim\r06y14g31b25.jpeg",10,6,37,14,7,31,2,25,4,-3,0,-1,0,1,1,1.145,1.457,0,1.214,1,"rød","9_11",-4,0,1,0,"Right_lead","Male","Male","stick",0.191774498901944,0.226543558617649,0.174459260801424,0.207588984760454,0.916331437658813,4,3,-0.964816115680712,1.04179887840731,-1.00514434718546
"79","11_1","9_1","9",11,"Male","Male",23,23,"Stim\r06y14g31b25.jpeg","Stim\r09y06g26b32.jpeg",6,9,14,6,31,26,25,32,4,-3,1,0,1,0,1,1.843,1.339,1.916,0,1,"rød","9_11",3,0,1,1,"Left_lead","Male","Male","stick",0.191774498901944,0.226543558617649,0.174459260801424,0.207588984760454,1.09130818708453,4,3,-1.03646693265946,1.04179887840731,-1.00514434718546
"80","11_1","9_1","9",11,"Male","Male",23,23,"Stim\r12y09g30b18.jpeg","Stim\r10y27g22b14.jpeg",12,10,9,27,30,22,18,14,4,-3,-1,0,0,1,1,1.819,2.099,2.679,0,1,"blå","9_11",-4,0,1,0,"Left_lead","Male","Male","surrender",0.191774498901944,0.226543558617649,0.174459260801424,0.207588984760454,1.09130818708453,4,3,-1.03646693265946,1.04179887840731,-1.00514434718546
"81","11_1","9_1","9",11,"Male","Male",23,23,"Stim\r10y02g36b05.jpeg","Stim\r04y28g27b06.jpeg",10,4,2,28,36,27,5,6,4,-2,0,1,1,0,1,1.906,1.769,0,2.152,1,"blå","9_11",1,0,1,1,"Right_lead","Male","Male","surrender",0.191774498901944,0.226543558617649,0.174459260801424,0.207588984760454,0.916331437658813,4,2,-0.662701978447357,1.04179887840731,-0.690402177864762
"82","11_1","9_1","9",11,"Male","Male",23,23,"Stim\r04y16g13b13.jpeg","Stim\r15y05g12b10.jpeg",4,15,16,5,13,12,13,10,-3,3,0,1,1,0,0,1.365,1.578,0,1.263,1,"blå","9_11",-3,1,0,1,"Right_lead","Male","Male","stick",0.191774498901944,0.226543558617649,0.174459260801424,0.207588984760454,0.916331437658813,3,3,-0.955930405762083,-0.924030309543875,0.88330866873874
"83","11_1","9_1","9",11,"Male","Male",23,23,"Stim\r06y14g31b25.jpeg","Stim\r13y24g05b28.jpeg",6,13,14,24,31,5,25,28,3,-2,0,-1,1,0,0,1.691,1.571,0,1.912,1,"blå","9_11",3,0,1,0,"Right_lead","Male","Male","stick",0.191774498901944,0.226543558617649,0.174459260801424,0.207588984760454,0.916331437658813,3,2,-0.907270565731501,0.760966137271426,-0.690402177864762
"84","11_1","9_1","9",11,"Male","Male",23,23,"Stim\r17y20g40b07.jpeg","Stim\r09y07g06b09.jpeg",17,9,20,7,40,6,7,9,4,-2,1,0,1,0,1,1.297,2.01,1.113,0,1,"blå","9_11",2,0,1,1,"Left_lead","Male","Male","stick",0.191774498901944,0.226543558617649,0.174459260801424,0.207588984760454,1.09130818708453,4,2,-1.50897391666598,1.04179887840731,-0.690402177864762
"85","11_1","9_1","9",11,"Male","Male",23,23,"Stim\r16y21g04b04.jpeg","Stim\r17y11g38b07.jpeg",16,17,21,11,4,38,4,7,4,-3,0,-1,1,0,0,1.118,1.399,0,1.181,1,"blå","9_11",3,0,1,0,"Right_lead","Male","Male","stick",0.191774498901944,0.226543558617649,0.174459260801424,0.207588984760454,0.916331437658813,4,3,-0.964816115680712,1.04179887840731,-1.00514434718546
"86","11_1","9_1","9",11,"Male","Male",23,23,"Stim\r22y35g09b11.jpeg","Stim\r09y07g06b09.jpeg",22,9,35,7,9,6,11,9,-2,1,0,-1,1,0,1,3.815,2.556,0,3.192,1,"blå","9_11",-2,1,0,0,"Right_lead","Male","Male","surrender",0.191774498901944,0.226543558617649,0.174459260801424,0.207588984760454,0.916331437658813,2,1,-0.394628870761423,-0.643197568407991,0.253824330097339
"87","11_1","9_1","9",11,"Male","Male",23,23,"Stim\r11y14g08b23.jpeg","Stim\r09y17g32b21.jpeg",11,9,14,17,8,32,23,21,2,-2,0,-1,0,1,1,2.535,2.581,0,1.68,1,"blå","9_11",-2,0,1,0,"Right_lead","Male","Male","stick",0.191774498901944,0.226543558617649,0.174459260801424,0.207588984760454,0.916331437658813,2,2,-1.43793825512162,0.480133396135543,-0.690402177864762
"88","11_1","9_1","9",11,"Male","Male",23,23,"Stim\r21y24g16b04.jpeg","Stim\r21y31g06b08.jpeg",21,21,24,31,16,6,4,8,4,-1,0,-1,1,0,0,1.799,1.78,0,1.811,1,"blå","9_11",4,0,1,0,"Right_lead","Male","Male","stick",0.191774498901944,0.226543558617649,0.174459260801424,0.207588984760454,0.916331437658813,4,1,-0.360587841214003,1.04179887840731,-0.375660008544062
"89","11_1","9_1","9",11,"Male","Male",23,23,"Stim\r08y09g09b11.jpeg","Stim\r03y06g12b09.jpeg",8,3,9,6,9,12,11,9,3,-2,1,0,0,1,0,0.99,1.035,1.346,0,1,"blå","9_11",-2,0,1,1,"Left_lead","Male","Male","stick",0.191774498901944,0.226543558617649,0.174459260801424,0.207588984760454,1.09130818708453,3,2,-1.1022070347821,0.760966137271426,-0.690402177864762
"90","11_1","9_1","9",11,"Male","Male",23,23,"Stim\r15y16g12b03.jpeg","Stim\r02y19g24b04.jpeg",15,2,16,19,12,24,3,4,-3,4,-1,0,0,1,0,1.417,1.231,1.41,0,1,"gul","9_11",3,1,0,0,"Left_lead","Male","Male","stick",0.191774498901944,0.226543558617649,0.174459260801424,0.207588984760454,1.09130818708453,3,4,-0.771278046130819,-0.924030309543875,1.19805083805944
"91","11_1","9_1","9",11,"Male","Male",23,23,"Stim\r15y17g24b30.jpeg","Stim\r19y15g35b05.jpeg",15,19,17,15,24,35,30,5,-4,4,0,1,1,0,0,1.936,2.086,0,1.501,1,"gul","9_11",-2,1,0,1,"Right_lead","Male","Male","stick",0.191774498901944,0.226543558617649,0.174459260801424,0.207588984760454,0.916331437658813,4,4,-0.994346068944122,-1.20486305067976,1.19805083805944
"92","11_1","9_1","9",11,"Male","Male",23,23,"Stim\r11y26g25b38.jpeg","Stim\r05y28g23b30.jpeg",11,5,26,28,25,23,38,30,-3,4,1,0,0,1,1,1.851,1.447,2.295,0,1,"gul","9_11",2,1,0,1,"Left_lead","Male","Male","surrender",0.191774498901944,0.226543558617649,0.174459260801424,0.207588984760454,1.09130818708453,3,4,-0.771278046130819,-0.924030309543875,1.19805083805944
"93","11_1","9_1","9",11,"Male","Male",23,23,"Stim\r09y15g18b07.jpeg","Stim\r08y12g20b03.jpeg",9,8,15,12,18,20,7,3,-4,2,-1,0,1,0,1,1.379,1.791,1.562,0,1,"gul","9_11",-3,1,0,0,"Left_lead","Male","Male","stick",0.191774498901944,0.226543558617649,0.174459260801424,0.207588984760454,1.09130818708453,4,2,-2.11912423949178,-1.20486305067976,0.568566499418039
"94","11_1","9_1","9",11,"Male","Male",23,23,"Stim\r19y15g35b05.jpeg","Stim\r12y12g14b26.jpeg",19,12,15,12,35,14,5,26,-2,4,0,1,1,0,0,1.64,1.753,0,1.411,1,"gul","9_11",-3,1,0,1,"Right_lead","Male","Male","stick",0.191774498901944,0.226543558617649,0.174459260801424,0.207588984760454,0.916331437658813,2,4,-1.86264826999392,-0.643197568407991,1.19805083805944
"95","11_1","9_1","9",11,"Male","Male",23,23,"Stim\r21y31g06b08.jpeg","Stim\r01y27g01b01.jpeg",21,1,31,27,6,1,8,1,-4,4,-1,0,1,0,1,2.077,1.555,2.793,0,1,"gul","9_11",-4,1,0,0,"Left_lead","Male","Male","stick",0.191774498901944,0.226543558617649,0.174459260801424,0.207588984760454,1.09130818708453,4,4,-1.00568607975881,-1.20486305067976,1.19805083805944
"96","11_1","9_1","9",11,"Male","Male",23,23,"Stim\r22y23g20b06.jpeg","Stim\r21y24g16b04.jpeg",22,21,23,24,20,16,6,4,-3,2,-1,0,0,1,0,1.632,2.08,1.272,0,1,"gul","9_11",1,1,0,0,"Left_lead","Male","Male","stick",0.191774498901944,0.226543558617649,0.174459260801424,0.207588984760454,1.09130818708453,3,2,-1.62519302577565,-0.924030309543875,0.568566499418039
"97","11_1","9_1","9",11,"Male","Male",23,23,"Stim\r02y19g24b04.jpeg","Stim\r19y15g35b05.jpeg",2,19,19,15,24,35,4,5,-3,4,0,1,1,0,0,1.051,1.48,0,2.158,1,"gul","9_11",-4,1,0,1,"Right_lead","Male","Male","stick",0.191774498901944,0.226543558617649,0.174459260801424,0.207588984760454,0.916331437658813,3,4,-1.29654928597616,-0.924030309543875,1.19805083805944
"98","11_1","9_1","9",11,"Male","Male",23,23,"Stim\r09y17g32b21.jpeg","Stim\r07y14g27b22.jpeg",9,7,17,14,32,27,21,22,-3,4,0,1,1,0,0,1.619,1.183,0,1.126,1,"gul","9_11",-3,1,0,1,"Right_lead","Male","Male","stick",0.191774498901944,0.226543558617649,0.174459260801424,0.207588984760454,0.916331437658813,3,4,-1.29654928597616,-0.924030309543875,1.19805083805944
"99","11_1","9_1","9",11,"Male","Male",23,23,"Stim\r17y12g19b18.jpeg","Stim\r21y24g16b04.jpeg",17,21,12,24,19,16,18,4,3,-4,0,-1,0,1,1,1.878,1.803,0,1.278,1,"grøn","9_11",-3,0,1,0,"Right_lead","Male","Male","stick",0.191774498901944,0.226543558617649,0.174459260801424,0.207588984760454,0.916331437658813,3,4,-1.7344878462514,0.760966137271426,-1.31988651650616
"100","11_1","9_1","9",11,"Male","Male",23,23,"Stim\r06y14g31b25.jpeg","Stim\r07y14g27b22.jpeg",6,7,14,14,31,27,25,22,4,-4,0,-1,0,1,1,1.958,1.881,0,2.423,1,"grøn","9_11",-4,0,1,0,"Right_lead","Male","Male","stick",0.191774498901944,0.226543558617649,0.174459260801424,0.207588984760454,0.916331437658813,4,4,-1.26693025291407,1.04179887840731,-1.31988651650616
"101","11_1","9_1","9",11,"Male","Male",23,23,"Stim\r06y19g29b08.jpeg","Stim\r05y40g33b16.jpeg",6,5,19,40,29,33,8,16,4,-4,0,-1,1,0,0,1.255,1.683,0,1.174,1,"grøn","9_11",4,0,1,0,"Right_lead","Male","Male","stick",0.191774498901944,0.226543558617649,0.174459260801424,0.207588984760454,0.916331437658813,4,4,-1.26693025291407,1.04179887840731,-1.31988651650616
"102","11_1","9_1","9",11,"Male","Male",23,23,"Stim\r11y14g08b23.jpeg","Stim\r13y24g05b28.jpeg",11,13,14,24,8,5,23,28,-4,4,0,-1,1,0,1,1.275,1.005,0,1.014,1,"grøn","9_11",-3,1,0,0,"Right_lead","Male","Male","surrender",0.191774498901944,0.226543558617649,0.174459260801424,0.207588984760454,0.916331437658813,4,4,-0.994346068944122,-1.20486305067976,1.19805083805944
"103","11_2","12_2","12",11,"Female","Male",24,23,"Stim\r14y08g21b39.jpeg","Stim\r18y13g28b06.jpeg",14,18,8,13,21,28,39,6,2,-3,-1,0,1,0,0,1.07,1.5,4.155,0,2,"rød","12_11",4,0,1,0,"Left_lead","Female","Male","surrender",0.395622718182082,0.213620502503279,0.182155608293144,0.220058000691721,0.970746357014026,2,3,-1.53772853699798,0.916287800493564,-0.595870973613055
"104","11_2","12_2","12",11,"Female","Male",24,23,"Stim\r11y10g06b19.jpeg","Stim\r09y06g26b32.jpeg",11,9,10,6,6,26,19,32,1,-4,1,0,0,1,0,1.874,2.336,5.858,0,2,"rød","12_11",-2,0,1,1,"Left_lead","Female","Male","stick",0.395622718182082,0.213620502503279,0.182155608293144,0.220058000691721,0.970746357014026,1,4,-0.409454344171059,0.352418384805217,-0.86070251744108
"105","11_2","12_2","12",11,"Female","Male",24,23,"Stim\r09y17g32b21.jpeg","Stim\r13y33g08b23.jpeg",9,13,17,33,32,8,21,23,1,-4,-1,0,1,0,0,2.503,1.666,2.395,0,2,"rød","12_11",4,0,1,0,"Left_lead","Female","Male","surrender",0.395622718182082,0.213620502503279,0.182155608293144,0.220058000691721,0.970746357014026,1,4,-0.409454344171059,0.352418384805217,-0.86070251744108
"106","11_2","12_2","12",11,"Female","Male",24,23,"Stim\r21y01g04b27.jpeg","Stim\r18y13g28b06.jpeg",21,18,1,13,4,28,27,6,1,-4,-1,0,0,1,1,1.925,1.271,1.975,0,2,"rød","12_11",-3,0,1,0,"Left_lead","Female","Male","surrender",0.395622718182082,0.213620502503279,0.182155608293144,0.220058000691721,0.970746357014026,1,4,-0.409454344171059,0.352418384805217,-0.86070251744108
"107","11_2","12_2","12",11,"Female","Male",24,23,"Stim\r10y07g11b10.jpeg","Stim\r14y10g15b15.jpeg",10,14,7,10,11,15,10,15,-1,4,0,1,0,1,1,1.088,1.318,0,1.437,2,"rød","12_11",4,1,0,1,"Right_lead","Male","Female","stick",0.395622718182082,0.213620502503279,0.182155608293144,0.220058000691721,1.03013520759012,1,4,-1.62249020872061,-0.775320446571477,1.25794983318312
"108","11_2","12_2","12",11,"Female","Male",24,23,"Stim\r14y12g04b29.jpeg","Stim\r17y20g40b07.jpeg",14,17,12,20,4,40,29,7,1,-4,-1,0,1,0,0,1.894,1.24,1.566,0,2,"rød","12_11",3,0,1,0,"Left_lead","Female","Male","surrender",0.395622718182082,0.213620502503279,0.182155608293144,0.220058000691721,0.970746357014026,1,4,-0.409454344171059,0.352418384805217,-0.86070251744108
"109","11_2","12_2","12",11,"Female","Male",24,23,"Stim\r17y22g16b15.jpeg","Stim\r13y21g23b09.jpeg",17,13,22,21,16,23,15,9,1,-4,-1,0,0,1,1,1.435,2.547,1.53,0,2,"rød","12_11",-4,0,1,0,"Left_lead","Female","Male","surrender",0.395622718182082,0.213620502503279,0.182155608293144,0.220058000691721,0.970746357014026,1,4,-0.409454344171059,0.352418384805217,-0.86070251744108
"110","11_2","12_2","12",11,"Female","Male",24,23,"Stim\r06y19g29b08.jpeg","Stim\r05y28g23b30.jpeg",6,5,19,28,29,23,8,30,2,-4,0,-1,0,1,1,1.099,1.56,0,2.498,2,"rød","12_11",-1,0,1,0,"Right_lead","Male","Female","stick",0.395622718182082,0.213620502503279,0.182155608293144,0.220058000691721,1.03013520759012,2,4,-0.939336436627724,0.916287800493564,-0.86070251744108
"111","11_2","12_2","12",11,"Female","Male",24,23,"Stim\r20y14g02b19.jpeg","Stim\r04y39g24b15.jpeg",20,4,14,39,2,24,19,15,4,-4,0,1,0,1,0,1.315,1.229,0,2.282,2,"blå","12_11",-4,0,1,1,"Right_lead","Male","Female","surrender",0.395622718182082,0.213620502503279,0.182155608293144,0.220058000691721,1.03013520759012,4,4,-0.421081850902083,2.04402663187026,-0.86070251744108
"112","11_2","12_2","12",11,"Female","Male",24,23,"Stim\r10y13g07b36.jpeg","Stim\r15y17g24b30.jpeg",10,15,13,17,7,24,36,30,3,-4,0,-1,0,1,1,1.037,1.233,0,1.405,2,"blå","12_11",-6,0,1,0,"Right_lead","Male","Female","stick",0.395622718182082,0.213620502503279,0.182155608293144,0.220058000691721,1.03013520759012,3,4,-0.581493984579067,1.48015721618191,-0.86070251744108
"113","11_2","12_2","12",11,"Female","Male",24,23,"Stim\r07y06g08b05.jpeg","Stim\r18y13g28b06.jpeg",7,18,6,13,8,28,5,6,1,-4,-1,0,1,0,0,1.567,2.013,1.963,0,2,"blå","12_11",1,0,1,0,"Left_lead","Female","Male","surrender",0.395622718182082,0.213620502503279,0.182155608293144,0.220058000691721,0.970746357014026,1,4,-0.409454344171059,0.352418384805217,-0.86070251744108
"114","11_2","12_2","12",11,"Female","Male",24,23,"Stim\r22y23g20b06.jpeg","Stim\r16y21g04b04.jpeg",22,16,23,21,20,4,6,4,1,-3,0,1,0,1,0,1.572,1.701,0,2.231,2,"blå","12_11",-2,0,1,1,"Right_lead","Male","Female","surrender",0.395622718182082,0.213620502503279,0.182155608293144,0.220058000691721,1.03013520759012,1,3,-1.6908055859299,0.352418384805217,-0.595870973613055
"115","11_2","12_2","12",11,"Female","Male",24,23,"Stim\r11y13g22b35.jpeg","Stim\r21y03g15b37.jpeg",11,21,13,3,22,15,35,37,-1,4,1,0,0,1,1,1.622,1.944,1.614,0,2,"blå","12_11",2,1,0,1,"Left_lead","Female","Male","surrender",0.395622718182082,0.213620502503279,0.182155608293144,0.220058000691721,0.970746357014026,1,4,-0.616336539120647,-0.775320446571477,1.25794983318312
"116","11_2","12_2","12",11,"Female","Male",24,23,"Stim\r11y10g06b19.jpeg","Stim\r05y40g33b16.jpeg",11,5,10,40,6,33,19,16,1,-4,0,-1,0,1,1,1.444,1.873,0,1.431,2,"blå","12_11",-3,0,1,0,"Right_lead","Male","Female","stick",0.395622718182082,0.213620502503279,0.182155608293144,0.220058000691721,1.03013520759012,1,4,-2.44227473523208,0.352418384805217,-0.86070251744108
"117","11_2","12_2","12",11,"Female","Male",24,23,"Stim\r17y07g07b24.jpeg","Stim\r12y07g16b25.jpeg",17,12,7,7,7,16,24,25,-2,4,0,1,0,1,1,0.952,1.661,0,1.679,2,"blå","12_11",1,1,0,1,"Right_lead","Male","Female","stick",0.395622718182082,0.213620502503279,0.182155608293144,0.220058000691721,1.03013520759012,2,4,-0.939336436627724,-1.33918986225982,1.25794983318312
"118","11_2","12_2","12",11,"Female","Male",24,23,"Stim\r17y11g38b07.jpeg","Stim\r10y02g36b05.jpeg",17,10,11,2,38,36,7,5,1,-4,0,-1,0,1,1,0.999,2.861,0,1.161,2,"blå","12_11",-2,0,1,0,"Right_lead","Male","Female","stick",0.395622718182082,0.213620502503279,0.182155608293144,0.220058000691721,1.03013520759012,1,4,-2.44227473523208,0.352418384805217,-0.86070251744108
"119","11_2","12_2","12",11,"Female","Male",24,23,"Stim\r06y14g31b25.jpeg","Stim\r14y12g04b29.jpeg",6,14,14,12,31,4,25,29,-1,4,0,1,0,1,1,1.719,2.465,0,1.378,2,"blå","12_11",4,1,0,1,"Right_lead","Male","Female","stick",0.395622718182082,0.213620502503279,0.182155608293144,0.220058000691721,1.03013520759012,1,4,-1.62249020872061,-0.775320446571477,1.25794983318312
"120","11_2","12_2","12",11,"Female","Male",24,23,"Stim\r11y14g08b23.jpeg","Stim\r11y10g06b19.jpeg",11,11,14,10,8,6,23,19,1,-4,0,-1,0,1,1,4.497,1.224,0,1.199,2,"blå","12_11",-4,0,1,0,"Right_lead","Male","Female","stick",0.395622718182082,0.213620502503279,0.182155608293144,0.220058000691721,1.03013520759012,1,4,-2.44227473523208,0.352418384805217,-0.86070251744108
"121","11_2","12_2","12",11,"Female","Male",24,23,"Stim\r07y02g03b06.jpeg","Stim\r19y10g06b15.jpeg",7,19,2,10,3,6,6,15,4,-4,0,1,1,0,1,1.451,2.096,0,1.16,2,"gul","12_11",8,0,1,1,"Right_lead","Male","Female","surrender",0.395622718182082,0.213620502503279,0.182155608293144,0.220058000691721,1.03013520759012,4,4,-0.421081850902083,2.04402663187026,-0.86070251744108
"122","11_2","12_2","12",11,"Female","Male",24,23,"Stim\r21y31g06b08.jpeg","Stim\r10y27g22b14.jpeg",21,10,31,27,6,22,8,14,2,-4,0,1,0,1,0,1.241,2.019,0,1.181,2,"gul","12_11",-4,0,1,1,"Right_lead","Male","Female","surrender",0.395622718182082,0.213620502503279,0.182155608293144,0.220058000691721,1.03013520759012,2,4,-0.939336436627724,0.916287800493564,-0.86070251744108
"123","11_2","12_2","12",11,"Female","Male",24,23,"Stim\r14y10g15b15.jpeg","Stim\r10y07g11b10.jpeg",14,10,10,7,15,11,15,10,-1,4,0,1,1,0,0,1.235,2.097,0,1.147,2,"gul","12_11",-3,1,0,1,"Right_lead","Male","Female","stick",0.395622718182082,0.213620502503279,0.182155608293144,0.220058000691721,1.03013520759012,1,4,-1.62249020872061,-0.775320446571477,1.25794983318312
"124","11_2","12_2","12",11,"Female","Male",24,23,"Stim\r04y28g27b06.jpeg","Stim\r10y27g22b14.jpeg",4,10,28,27,27,22,6,14,-3,4,1,0,1,0,0,1.434,1.563,2.728,0,2,"gul","12_11",-1,1,0,1,"Left_lead","Female","Male","surrender",0.395622718182082,0.213620502503279,0.182155608293144,0.220058000691721,0.970746357014026,3,4,-1.51282605056886,-1.90305927794817,1.25794983318312
"125","11_2","12_2","12",11,"Female","Male",24,23,"Stim\r13y24g05b28.jpeg","Stim\r10y27g22b14.jpeg",13,10,24,27,5,22,28,14,-1,4,1,0,0,1,1,0.957,1.136,2.431,0,2,"gul","12_11",3,1,0,1,"Left_lead","Female","Male","surrender",0.395622718182082,0.213620502503279,0.182155608293144,0.220058000691721,0.970746357014026,1,4,-0.616336539120647,-0.775320446571477,1.25794983318312
"126","11_2","12_2","12",11,"Female","Male",24,23,"Stim\r21y31g06b08.jpeg","Stim\r10y37g07b02.jpeg",21,10,31,37,6,7,8,2,1,-4,0,-1,1,0,0,2.566,2.978,0,1.114,2,"grøn","12_11",1,0,1,0,"Right_lead","Male","Female","stick",0.395622718182082,0.213620502503279,0.182155608293144,0.220058000691721,1.03013520759012,1,4,-2.44227473523208,0.352418384805217,-0.86070251744108
"127","11_2","12_2","12",11,"Female","Male",24,23,"Stim\r07y06g08b05.jpeg","Stim\r09y02g05b02.jpeg",7,9,6,2,8,5,5,2,-1,4,0,1,1,0,0,0.997,1.948,0,1.955,2,"grøn","12_11",-3,1,0,1,"Right_lead","Male","Female","stick",0.395622718182082,0.213620502503279,0.182155608293144,0.220058000691721,1.03013520759012,1,4,-1.62249020872061,-0.775320446571477,1.25794983318312
"128","11_2","12_2","12",11,"Female","Male",24,23,"Stim\r20y04g39b23.jpeg","Stim\r17y20g40b07.jpeg",20,17,4,20,39,40,23,7,-2,4,1,0,0,1,1,0.88,3.759,2.295,0,2,"grøn","12_11",1,1,0,1,"Left_lead","Female","Male","surrender",0.395622718182082,0.213620502503279,0.182155608293144,0.220058000691721,0.970746357014026,2,4,-1.06458129484475,-1.33918986225982,1.25794983318312
"129","11_2","12_2","12",11,"Female","Male",24,23,"Stim\r04y28g27b06.jpeg","Stim\r09y06g26b32.jpeg",4,9,28,6,27,26,6,32,-2,4,1,0,1,0,0,1.783,1.412,1.71,0,2,"grøn","12_11",-1,1,0,1,"Left_lead","Female","Male","surrender",0.395622718182082,0.213620502503279,0.182155608293144,0.220058000691721,0.970746357014026,2,4,-1.06458129484475,-1.33918986225982,1.25794983318312
"130","11_2","12_2","12",11,"Female","Male",24,23,"Stim\r11y13g22b35.jpeg","Stim\r04y16g13b13.jpeg",11,4,13,16,22,13,35,13,-2,2,0,1,1,0,0,2.57,1.747,0,2.783,2,"grøn","12_11",-9,1,0,1,"Right_lead","Male","Female","stick",0.395622718182082,0.213620502503279,0.182155608293144,0.220058000691721,1.03013520759012,2,2,-0.54382635804763,-1.33918986225982,0.728286745527067
"131","11_2","12_2","12",11,"Female","Male",24,23,"Stim\r22y35g09b11.jpeg","Stim\r10y37g07b02.jpeg",22,10,35,37,9,7,11,2,-1,2,0,1,1,0,0,1.606,1.859,0,1.401,2,"grøn","12_11",-2,1,0,1,"Right_lead","Male","Female","stick",0.395622718182082,0.213620502503279,0.182155608293144,0.220058000691721,1.03013520759012,1,2,-0.939336436627724,-0.775320446571477,0.728286745527067
"132","11_2","12_2","12",11,"Female","Male",24,23,"Stim\r18y19g14b27.jpeg","Stim\r04y16g13b13.jpeg",18,4,19,16,14,13,27,13,2,-3,1,0,0,1,0,1.37,1.932,4.438,0,2,"grøn","12_11",-1,0,1,1,"Left_lead","Female","Male","stick",0.395622718182082,0.213620502503279,0.182155608293144,0.220058000691721,0.970746357014026,2,3,-1.53772853699798,0.916287800493564,-0.595870973613055
"133","11_2","12_2","12",11,"Female","Male",24,23,"Stim\r17y22g16b15.jpeg","Stim\r22y23g20b06.jpeg",17,22,22,23,16,20,15,6,1,-3,0,-1,1,0,0,0.795,1.69,0,1.299,2,"grøn","12_11",4,0,1,0,"Right_lead","Male","Female","stick",0.395622718182082,0.213620502503279,0.182155608293144,0.220058000691721,1.03013520759012,1,3,-1.6908055859299,0.352418384805217,-0.595870973613055
"134","11_2","12_2","12",11,"Female","Male",24,23,"Stim\r11y26g25b38.jpeg","Stim\r04y39g24b15.jpeg",11,4,26,39,25,24,38,15,-1,4,0,1,1,0,0,1.353,1.633,0,1.094,2,"grøn","12_11",-1,1,0,1,"Right_lead","Male","Female","stick",0.395622718182082,0.213620502503279,0.182155608293144,0.220058000691721,1.03013520759012,1,4,-1.62249020872061,-0.775320446571477,1.25794983318312
"135","12_1","10_1","10",12,"Female","Female",26,24,"Stim\r10y02g36b05.jpeg","Stim\r09y07g06b09.jpeg",10,9,2,7,36,6,5,9,2,-1,0,1,0,1,0,5.521,9.827,0,13.074,1,"rød","10_12",-1,0,1,1,"Right_lead","Female","Female","surrender",0.352296065189777,0.216657864492136,-0.130480124777104,0.230579460165299,1.06425612892381,2,1,0.320394014189422,0.244997301984081,0.0784956690482579
"136","12_1","10_1","10",12,"Female","Female",26,24,"Stim\r12y07g16b25.jpeg","Stim\r09y02g05b02.jpeg",12,9,7,2,16,5,25,2,3,-2,0,1,0,1,0,1.628,1.942,0,9.918,1,"rød","10_12",-3,0,1,1,"Right_lead","Female","Female","surrender",0.352296065189777,0.216657864492136,-0.130480124777104,0.230579460165299,1.06425612892381,3,2,-0.609530075774999,0.772683798565179,-0.470974014289548
"137","12_1","10_1","10",12,"Female","Female",26,24,"Stim\r22y23g20b06.jpeg","Stim\r16y21g04b04.jpeg",22,16,23,21,20,4,6,4,3,-3,0,-1,0,1,1,2.329,1.93,0,3.411,1,"rød","10_12",-6,0,1,0,"Right_lead","Female","Female","stick",0.352296065189777,0.216657864492136,-0.130480124777104,0.230579460165299,1.06425612892381,3,3,-1.3206484975125,0.772683798565179,-1.02044369762735
"138","12_1","10_1","10",12,"Female","Female",26,24,"Stim\r09y17g32b21.jpeg","Stim\r10y37g07b02.jpeg",9,10,17,37,32,7,21,2,2,-3,-1,0,1,0,0,4.776,1.99,13.944,0,1,"rød","10_12",1,0,1,0,"Left_lead","Female","Female","surrender",0.352296065189777,0.216657864492136,-0.130480124777104,0.230579460165299,0.939623435395404,2,3,-0.240088995163307,0.244997301984081,-1.02044369762735
"139","12_1","10_1","10",12,"Female","Female",26,24,"Stim\r12y07g07b17.jpeg","Stim\r08y23g10b29.jpeg",12,8,7,23,7,10,17,29,2,-2,1,0,0,1,0,1.295,2.473,3.564,0,1,"rød","10_12",-4,0,1,1,"Left_lead","Female","Female","stick",0.352296065189777,0.216657864492136,-0.130480124777104,0.230579460165299,0.939623435395404,2,2,-0.520192822853833,0.244997301984081,-0.470974014289548
"140","12_1","10_1","10",12,"Female","Female",26,24,"Stim\r22y35g09b11.jpeg","Stim\r21y03g15b37.jpeg",22,21,35,3,9,15,11,37,2,-4,-1,0,0,1,1,1.439,1.437,2.497,0,1,"rød","10_12",-1,0,1,0,"Left_lead","Female","Female","surrender",0.352296065189777,0.216657864492136,-0.130480124777104,0.230579460165299,0.939623435395404,2,4,-0.15605784685615,0.244997301984081,-1.56991338096516
"141","12_1","10_1","10",12,"Female","Female",26,24,"Stim\r06y19g29b08.jpeg","Stim\r05y09g02b34.jpeg",6,5,19,9,29,2,8,34,1,-2,0,-1,0,1,1,1.589,2.853,0,6.282,1,"rød","10_12",-1,0,1,0,"Right_lead","Female","Female","stick",0.352296065189777,0.216657864492136,-0.130480124777104,0.230579460165299,1.06425612892381,1,2,1.666048873785,-0.282689194597017,-0.470974014289548
"142","12_1","10_1","10",12,"Female","Female",26,24,"Stim\r08y12g20b03.jpeg","Stim\r07y02g03b06.jpeg",8,7,12,2,20,3,3,6,2,-3,0,-1,0,1,1,2.541,1.121,0,3.913,1,"rød","10_12",-1,0,1,0,"Right_lead","Female","Female","stick",0.352296065189777,0.216657864492136,-0.130480124777104,0.230579460165299,1.06425612892381,2,3,-4.16512218446249,0.244997301984081,-1.02044369762735
"143","12_1","10_1","10",12,"Female","Female",26,24,"Stim\r16y09g06b10.jpeg","Stim\r18y13g28b06.jpeg",16,18,9,13,6,28,10,6,2,-2,0,1,0,1,0,1.309,2.74,0,5.699,1,"blå","10_12",-4,0,1,1,"Right_lead","Female","Female","surrender",0.352296065189777,0.216657864492136,-0.130480124777104,0.230579460165299,1.06425612892381,2,2,-1.92236408513653,0.244997301984081,-0.470974014289548
"144","12_1","10_1","10",12,"Female","Female",26,24,"Stim\r17y20g40b07.jpeg","Stim\r21y24g16b04.jpeg",17,21,20,24,40,16,7,4,1,-2,-1,0,0,1,1,2.064,1.812,3.281,0,1,"blå","10_12",-3,0,1,0,"Left_lead","Female","Female","surrender",0.352296065189777,0.216657864492136,-0.130480124777104,0.230579460165299,0.939623435395404,1,2,0.600222487908269,-0.282689194597017,-0.470974014289548
"145","12_1","10_1","10",12,"Female","Female",26,24,"Stim\r04y16g13b13.jpeg","Stim\r14y10g15b15.jpeg",4,14,16,10,13,15,13,15,4,-2,1,0,1,0,1,1.515,2.71,1.391,0,1,"blå","10_12",2,0,1,1,"Left_lead","Female","Female","stick",0.352296065189777,0.216657864492136,-0.130480124777104,0.230579460165299,0.939623435395404,4,2,-2.76102344437804,1.30037029514628,-0.470974014289548
"146","12_1","10_1","10",12,"Female","Female",26,24,"Stim\r21y24g16b04.jpeg","Stim\r09y02g05b02.jpeg",21,9,24,2,16,5,4,2,4,-1,1,0,0,1,0,1.376,2.016,1.298,0,1,"blå","10_12",-2,0,1,1,"Left_lead","Female","Female","stick",0.352296065189777,0.216657864492136,-0.130480124777104,0.230579460165299,0.939623435395404,4,1,16.5661406662682,1.30037029514628,0.0784956690482579
"147","12_1","10_1","10",12,"Female","Female",26,24,"Stim\r19y15g35b05.jpeg","Stim\r08y12g20b03.jpeg",19,8,15,12,35,20,5,3,1,-1,-1,0,0,1,1,5.523,1.879,1.709,0,1,"blå","10_12",-2,0,1,0,"Left_lead","Female","Female","surrender",0.352296065189777,0.216657864492136,-0.130480124777104,0.230579460165299,0.939623435395404,1,1,-3.60133492744962,-0.282689194597017,0.0784956690482579
"148","12_1","10_1","10",12,"Female","Female",26,24,"Stim\r04y28g27b06.jpeg","Stim\r10y03g03b07.jpeg",4,10,28,3,27,3,6,7,4,-1,1,0,1,0,1,1.446,1.895,3.406,0,1,"blå","10_12",1,0,1,1,"Left_lead","Female","Female","stick",0.352296065189777,0.216657864492136,-0.130480124777104,0.230579460165299,0.939623435395404,4,1,16.5661406662682,1.30037029514628,0.0784956690482579
"149","12_1","10_1","10",12,"Female","Female",26,24,"Stim\r08y23g10b29.jpeg","Stim\r07y14g27b22.jpeg",8,7,23,14,10,27,29,22,3,-2,-1,0,0,1,1,1.161,1.125,2.392,0,1,"blå","10_12",-7,0,1,0,"Left_lead","Female","Female","surrender",0.352296065189777,0.216657864492136,-0.130480124777104,0.230579460165299,0.939623435395404,3,2,-1.64060813361593,0.772683798565179,-0.470974014289548
"150","12_1","10_1","10",12,"Female","Female",26,24,"Stim\r10y13g07b36.jpeg","Stim\r09y06g26b32.jpeg",10,9,13,6,7,26,36,32,4,-4,0,1,0,1,0,1.684,1.548,0,11.35,1,"blå","10_12",-4,0,1,1,"Right_lead","Female","Female","surrender",0.352296065189777,0.216657864492136,-0.130480124777104,0.230579460165299,1.06425612892381,4,4,-1.20728179259782,1.30037029514628,-1.56991338096516
"151","12_1","10_1","10",12,"Female","Female",26,24,"Stim\r08y23g10b29.jpeg","Stim\r10y27g22b14.jpeg",8,10,23,27,10,22,29,14,3,-1,0,1,1,0,1,1.274,1.671,0,3.096,1,"gul","10_12",4,0,1,1,"Right_lead","Female","Female","surrender",0.352296065189777,0.216657864492136,-0.130480124777104,0.230579460165299,1.06425612892381,3,1,0.1015883459625,0.772683798565179,0.0784956690482579
"152","12_1","10_1","10",12,"Female","Female",26,24,"Stim\r14y12g04b29.jpeg","Stim\r18y13g28b06.jpeg",14,18,12,13,4,28,29,6,-2,3,0,1,0,1,1,0.982,1.48,0,4.282,1,"gul","10_12",1,1,0,1,"Right_lead","Female","Female","stick",0.352296065189777,0.216657864492136,-0.130480124777104,0.230579460165299,1.06425612892381,2,3,-1.22008629645871,-1.86574868434031,2.27637440239948
"153","12_1","10_1","10",12,"Female","Female",26,24,"Stim\r03y06g12b09.jpeg","Stim\r10y03g03b07.jpeg",3,10,6,3,12,3,9,7,2,-2,-1,0,0,1,1,0.854,1.219,1.471,0,1,"gul","10_12",-3,0,1,0,"Left_lead","Female","Female","surrender",0.352296065189777,0.216657864492136,-0.130480124777104,0.230579460165299,0.939623435395404,2,2,-0.520192822853833,0.244997301984081,-0.470974014289548
"154","12_1","10_1","10",12,"Female","Female",26,24,"Stim\r06y19g29b08.jpeg","Stim\r14y20g16b10.jpeg",6,14,19,20,29,16,8,10,-1,2,1,0,0,1,1,1.934,0.847,2.474,0,1,"gul","10_12",1,1,0,1,"Left_lead","Female","Female","surrender",0.352296065189777,0.216657864492136,-0.130480124777104,0.230579460165299,0.939623435395404,1,2,-0.774832666208856,-1.33806218775921,1.72690471906167
"155","12_1","10_1","10",12,"Female","Female",26,24,"Stim\r22y02g34b05.jpeg","Stim\r10y03g03b07.jpeg",22,10,2,3,34,3,5,7,3,-1,1,0,1,0,1,1.066,1.178,0.983,0,1,"gul","10_12",1,0,1,1,"Left_lead","Female","Female","stick",0.352296065189777,0.216657864492136,-0.130480124777104,0.230579460165299,0.939623435395404,3,1,9.84364880169561,0.772683798565179,0.0784956690482579
"156","12_1","10_1","10",12,"Female","Female",26,24,"Stim\r11y26g25b38.jpeg","Stim\r11y13g22b35.jpeg",11,11,26,13,25,22,38,35,-2,2,1,0,1,0,0,0.873,1.521,2.12,0,1,"grøn","10_12",-3,1,0,1,"Left_lead","Female","Female","surrender",0.352296065189777,0.216657864492136,-0.130480124777104,0.230579460165299,0.939623435395404,2,2,-1.08040047823488,-1.86574868434031,1.72690471906167
"157","12_1","10_1","10",12,"Female","Female",26,24,"Stim\r04y16g13b13.jpeg","Stim\r08y23g10b29.jpeg",4,8,16,23,13,10,13,29,3,-2,0,1,0,1,0,1.109,1.205,0,2.13,1,"grøn","10_12",-3,0,1,1,"Right_lead","Female","Female","surrender",0.352296065189777,0.216657864492136,-0.130480124777104,0.230579460165299,1.06425612892381,3,2,-0.609530075774999,0.772683798565179,-0.470974014289548
"158","12_1","10_1","10",12,"Female","Female",26,24,"Stim\r21y24g16b04.jpeg","Stim\r15y16g12b03.jpeg",21,15,24,16,16,12,4,3,-1,1,1,0,1,0,0,0.991,1.406,1.275,0,1,"grøn","10_12",-4,1,0,1,"Left_lead","Female","Female","surrender",0.352296065189777,0.216657864492136,-0.130480124777104,0.230579460165299,0.939623435395404,1,1,-1.13642124377299,-1.33806218775921,1.17743503572387
"159","12_1","10_1","10",12,"Female","Female",26,24,"Stim\r13y33g08b23.jpeg","Stim\r17y07g07b24.jpeg",13,17,33,7,8,7,23,24,1,-2,0,-1,0,1,1,1.288,0.969,0,2.683,1,"grøn","10_12",-1,0,1,0,"Right_lead","Female","Female","stick",0.352296065189777,0.216657864492136,-0.130480124777104,0.230579460165299,1.06425612892381,1,2,1.666048873785,-0.282689194597017,-0.470974014289548
"160","12_1","10_1","10",12,"Female","Female",26,24,"Stim\r14y08g21b39.jpeg","Stim\r03y06g12b09.jpeg",14,3,8,6,21,12,39,9,-1,1,1,0,1,0,0,0.926,1.57,5.309,0,1,"grøn","10_12",-9,1,0,1,"Left_lead","Female","Female","surrender",0.352296065189777,0.216657864492136,-0.130480124777104,0.230579460165299,0.939623435395404,1,1,-1.13642124377299,-1.33806218775921,1.17743503572387
"161","12_1","10_1","10",12,"Female","Female",26,24,"Stim\r09y02g05b02.jpeg","Stim\r03y11g01b26.jpeg",9,3,2,11,5,1,2,26,-1,1,0,-1,1,0,1,1.94,1.087,0,3.98,1,"grøn","10_12",-4,1,0,0,"Right_lead","Female","Female","surrender",0.352296065189777,0.216657864492136,-0.130480124777104,0.230579460165299,1.06425612892381,1,1,-0.879955391083625,-1.33806218775921,1.17743503572387
"162","12_1","10_1","10",12,"Female","Female",26,24,"Stim\r10y13g07b36.jpeg","Stim\r16y21g04b04.jpeg",10,16,13,21,7,4,36,4,-1,1,1,0,1,0,0,1.031,1.844,1.856,0,1,"grøn","10_12",-3,1,0,1,"Left_lead","Female","Female","surrender",0.352296065189777,0.216657864492136,-0.130480124777104,0.230579460165299,0.939623435395404,1,1,-1.13642124377299,-1.33806218775921,1.17743503572387
"163","14_1","13_1","13",14,"Male","Female",23,25,"Stim\r14y20g16b10.jpeg","Stim\r16y21g04b04.jpeg",14,16,20,21,16,4,10,4,-2,2,0,-1,0,1,0,4.215,3.494,0,8.333,1,"rød","13_14",2,1,0,0,"Right_lead","Female","Male","surrender",-0.0117996166848813,0.215875578437123,-0.0870793946225977,0.196858646875613,0.911907906863819,2,2,-1.14846527701369,-1.08072827448677,1.24117889713498
"164","14_1","13_1","13",14,"Male","Female",23,25,"Stim\r03y06g12b09.jpeg","Stim\r07y02g03b06.jpeg",3,7,6,2,12,3,9,6,1,-2,-1,0,1,0,0,3.281,2.461,6.032,0,1,"rød","13_14",4,0,1,0,"Left_lead","Male","Female","surrender",-0.0117996166848813,0.215875578437123,-0.0870793946225977,0.196858646875613,1.09660196218623,1,2,-0.39881655105438,0.388386723643683,-0.973848057752059
"165","14_1","13_1","13",14,"Male","Female",23,25,"Stim\r18y13g28b06.jpeg","Stim\r12y07g16b25.jpeg",18,12,13,7,28,16,6,25,2,-2,1,0,0,1,0,2.298,1.469,2.879,0,1,"rød","13_14",-6,0,1,1,"Left_lead","Male","Female","stick",-0.0117996166848813,0.215875578437123,-0.0870793946225977,0.196858646875613,1.09660196218623,2,2,-0.901672202383816,0.8780917230205,-0.973848057752059
"166","14_1","13_1","13",14,"Male","Female",23,25,"Stim\r10y07g11b10.jpeg","Stim\r09y15g18b07.jpeg",10,9,7,15,11,18,10,7,-1,1,1,0,1,0,0,2.529,1.738,8.43,0,1,"rød","13_14",-1,1,0,1,"Left_lead","Male","Female","surrender",-0.0117996166848813,0.215875578437123,-0.0870793946225977,0.196858646875613,1.09660196218623,1,1,-0.859767564773029,-0.591023275109952,0.687422158413218
"167","14_1","13_1","13",14,"Male","Female",23,25,"Stim\r13y21g23b09.jpeg","Stim\r12y07g16b25.jpeg",13,12,21,7,23,16,9,25,3,-3,0,-1,0,1,1,1.763,1.492,0,7.612,1,"rød","13_14",-1,0,1,0,"Right_lead","Female","Male","stick",-0.0117996166848813,0.215875578437123,-0.0870793946225977,0.196858646875613,0.911907906863819,3,3,-1.11683612883383,1.36779672239732,-1.52760479647382
"168","14_1","13_1","13",14,"Male","Female",23,25,"Stim\r10y37g07b02.jpeg","Stim\r13y21g23b09.jpeg",10,13,37,21,7,23,2,9,-1,2,0,1,0,1,1,2.93,2.909,0,6.117,1,"rød","13_14",3,1,0,1,"Right_lead","Female","Male","stick",-0.0117996166848813,0.215875578437123,-0.0870793946225977,0.196858646875613,0.911907906863819,1,2,-2.10005079225361,-0.591023275109952,1.24117889713498
"169","14_1","13_1","13",14,"Male","Female",23,25,"Stim\r04y28g27b06.jpeg","Stim\r10y27g22b14.jpeg",4,10,28,27,27,22,6,14,2,-3,-1,0,1,0,0,1.258,1.754,4.536,0,1,"blå","13_14",8,0,1,0,"Left_lead","Male","Female","surrender",-0.0117996166848813,0.215875578437123,-0.0870793946225977,0.196858646875613,1.09660196218623,2,3,-0.574816029019682,0.8780917230205,-1.52760479647382
"170","14_1","13_1","13",14,"Male","Female",23,25,"Stim\r10y27g22b14.jpeg","Stim\r12y09g30b18.jpeg",10,12,27,9,22,30,14,18,-2,2,0,1,0,1,1,1.989,1.285,0,4.834,1,"blå","13_14",4,1,0,1,"Right_lead","Female","Male","stick",-0.0117996166848813,0.215875578437123,-0.0870793946225977,0.196858646875613,0.911907906863819,2,2,-1.14846527701369,-1.08072827448677,1.24117889713498
"171","14_1","13_1","13",14,"Male","Female",23,25,"Stim\r18y19g14b27.jpeg","Stim\r05y28g23b30.jpeg",18,5,19,28,14,23,27,30,2,-1,-1,0,1,0,0,3.325,2.952,3.016,0,1,"blå","13_14",3,0,1,0,"Left_lead","Male","Female","surrender",-0.0117996166848813,0.215875578437123,-0.0870793946225977,0.196858646875613,1.09660196218623,2,1,-2.09024010552612,0.8780917230205,-0.4200913190303
"172","14_1","13_1","13",14,"Male","Female",23,25,"Stim\r09y07g06b09.jpeg","Stim\r22y35g09b11.jpeg",9,22,7,35,6,9,9,11,-2,2,-1,0,0,1,0,1.871,1.484,2.843,0,1,"blå","13_14",2,1,0,0,"Left_lead","Male","Female","stick",-0.0117996166848813,0.215875578437123,-0.0870793946225977,0.196858646875613,1.09660196218623,2,2,-0.870727239225081,-1.08072827448677,1.24117889713498
"173","14_1","13_1","13",14,"Male","Female",23,25,"Stim\r12y09g30b18.jpeg","Stim\r09y17g32b21.jpeg",12,9,9,17,30,32,18,21,2,-2,1,0,1,0,1,1.171,1.569,3.171,0,1,"blå","13_14",3,0,1,1,"Left_lead","Male","Female","stick",-0.0117996166848813,0.215875578437123,-0.0870793946225977,0.196858646875613,1.09660196218623,2,2,-0.901672202383816,0.8780917230205,-0.973848057752059
"174","14_1","13_1","13",14,"Male","Female",23,25,"Stim\r15y16g12b03.jpeg","Stim\r22y23g20b06.jpeg",15,22,16,23,12,20,3,6,1,-1,0,1,1,0,1,2.078,1.308,0,4.612,1,"blå","13_14",3,0,1,1,"Right_lead","Female","Male","surrender",-0.0117996166848813,0.215875578437123,-0.0870793946225977,0.196858646875613,0.911907906863819,1,1,-1.08163151172928,0.388386723643683,-0.4200913190303
"175","14_1","13_1","13",14,"Male","Female",23,25,"Stim\r17y11g38b07.jpeg","Stim\r06y19g29b08.jpeg",17,6,11,19,38,29,7,8,1,-1,0,1,1,0,1,6.864,1.567,0,4.736,1,"blå","13_14",1,0,1,1,"Right_lead","Female","Male","surrender",-0.0117996166848813,0.215875578437123,-0.0870793946225977,0.196858646875613,0.911907906863819,1,1,-1.08163151172928,0.388386723643683,-0.4200913190303
"176","14_1","13_1","13",14,"Male","Female",23,25,"Stim\r21y01g04b27.jpeg","Stim\r15y17g24b30.jpeg",21,15,1,17,4,24,27,30,1,-2,0,-1,1,0,0,2.188,1.182,0,3.628,1,"blå","13_14",3,0,1,0,"Right_lead","Female","Male","stick",-0.0117996166848813,0.215875578437123,-0.0870793946225977,0.196858646875613,0.911907906863819,1,2,-2.50741850446334,0.388386723643683,-0.973848057752059
"177","14_1","13_1","13",14,"Male","Female",23,25,"Stim\r09y06g26b32.jpeg","Stim\r05y28g23b30.jpeg",9,5,6,28,26,23,32,30,-2,2,0,1,1,0,0,2.39,2.669,0,2.252,1,"blå","13_14",-2,1,0,1,"Right_lead","Female","Male","stick",-0.0117996166848813,0.215875578437123,-0.0870793946225977,0.196858646875613,0.911907906863819,2,2,-1.14846527701369,-1.08072827448677,1.24117889713498
"178","14_1","13_1","13",14,"Male","Female",23,25,"Stim\r11y14g08b23.jpeg","Stim\r12y12g14b26.jpeg",11,12,14,12,8,14,23,26,3,-2,1,0,1,0,1,5.236,1.548,4.186,0,1,"blå","13_14",3,0,1,1,"Left_lead","Male","Female","stick",-0.0117996166848813,0.215875578437123,-0.0870793946225977,0.196858646875613,1.09660196218623,3,2,-1.40452785371325,1.36779672239732,-0.973848057752059
"179","14_1","13_1","13",14,"Male","Female",23,25,"Stim\r03y06g12b09.jpeg","Stim\r22y35g09b11.jpeg",3,22,6,35,12,9,9,11,2,-1,0,1,1,0,1,2.471,1.399,0,2.227,1,"blå","13_14",2,0,1,1,"Right_lead","Female","Male","surrender",-0.0117996166848813,0.215875578437123,-0.0870793946225977,0.196858646875613,0.911907906863819,2,1,-0.47841393788026,0.8780917230205,-0.4200913190303
"180","14_1","13_1","13",14,"Male","Female",23,25,"Stim\r12y07g16b25.jpeg","Stim\r03y06g12b09.jpeg",12,3,7,6,16,12,25,9,3,-2,0,-1,0,1,1,2.664,1.509,0,2.332,1,"gul","13_14",-1,0,1,0,"Right_lead","Female","Male","stick",-0.0117996166848813,0.215875578437123,-0.0870793946225977,0.196858646875613,0.911907906863819,3,2,-0.711983032131565,1.36779672239732,-0.973848057752059
"181","14_1","13_1","13",14,"Male","Female",23,25,"Stim\r18y19g14b27.jpeg","Stim\r08y23g10b29.jpeg",18,8,19,23,14,10,27,29,-1,2,1,0,0,1,1,1.731,2.31,1.489,0,1,"gul","13_14",4,1,0,1,"Left_lead","Male","Female","surrender",-0.0117996166848813,0.215875578437123,-0.0870793946225977,0.196858646875613,1.09660196218623,1,2,-0.476178958951216,-0.591023275109952,1.24117889713498
"182","14_1","13_1","13",14,"Male","Female",23,25,"Stim\r16y09g06b10.jpeg","Stim\r09y07g06b09.jpeg",16,9,9,7,6,6,10,9,-1,2,0,1,1,0,0,2.831,1.127,0,2.725,1,"gul","13_14",-2,1,0,1,"Right_lead","Female","Male","stick",-0.0117996166848813,0.215875578437123,-0.0870793946225977,0.196858646875613,0.911907906863819,1,2,-2.10005079225361,-0.591023275109952,1.24117889713498
"183","14_1","13_1","13",14,"Male","Female",23,25,"Stim\r13y21g23b09.jpeg","Stim\r18y19g14b27.jpeg",13,18,21,19,23,14,9,27,-4,1,-1,0,1,0,1,1.667,0.863,1.729,0,1,"gul","13_14",-2,1,0,0,"Left_lead","Male","Female","stick",-0.0117996166848813,0.215875578437123,-0.0870793946225977,0.196858646875613,1.09660196218623,4,1,-2.99690408292313,-2.0601382732404,0.687422158413218
"184","14_1","13_1","13",14,"Male","Female",23,25,"Stim\r09y07g06b09.jpeg","Stim\r07y14g27b22.jpeg",9,7,7,14,6,27,9,22,2,-2,-1,0,1,0,0,2.58,1.909,2.195,0,1,"gul","13_14",7,0,1,0,"Left_lead","Male","Female","surrender",-0.0117996166848813,0.215875578437123,-0.0870793946225977,0.196858646875613,1.09660196218623,2,2,-0.901672202383816,0.8780917230205,-0.973848057752059
"185","14_1","13_1","13",14,"Male","Female",23,25,"Stim\r07y14g27b22.jpeg","Stim\r11y13g22b35.jpeg",7,11,14,13,27,22,22,35,-1,1,-1,0,1,0,1,1.127,1.223,1.243,0,1,"gul","13_14",-1,1,0,0,"Left_lead","Male","Female","stick",-0.0117996166848813,0.215875578437123,-0.0870793946225977,0.196858646875613,1.09660196218623,1,1,-0.859767564773029,-0.591023275109952,0.687422158413218
"186","14_1","13_1","13",14,"Male","Female",23,25,"Stim\r17y22g16b15.jpeg","Stim\r14y20g16b10.jpeg",17,14,22,20,16,16,15,10,-3,2,0,-1,1,0,1,1.526,1.006,0,3.112,1,"gul","13_14",-2,1,0,0,"Right_lead","Female","Male","surrender",-0.0117996166848813,0.215875578437123,-0.0870793946225977,0.196858646875613,0.911907906863819,3,2,-0.790341696009423,-1.57043327386359,1.24117889713498
"187","14_1","13_1","13",14,"Male","Female",23,25,"Stim\r21y03g15b37.jpeg","Stim\r03y11g01b26.jpeg",21,3,3,11,15,1,37,26,2,-1,1,0,1,0,1,4.022,1.744,2.412,0,1,"gul","13_14",8,0,1,1,"Left_lead","Male","Female","stick",-0.0117996166848813,0.215875578437123,-0.0870793946225977,0.196858646875613,1.09660196218623,2,1,-2.09024010552612,0.8780917230205,-0.4200913190303
"188","14_1","13_1","13",14,"Male","Female",23,25,"Stim\r11y26g25b38.jpeg","Stim\r05y28g23b30.jpeg",11,5,26,28,25,23,38,30,-2,1,-1,0,0,1,0,1.303,1.943,1.113,0,1,"gul","13_14",2,1,0,0,"Left_lead","Male","Female","stick",-0.0117996166848813,0.215875578437123,-0.0870793946225977,0.196858646875613,1.09660196218623,2,1,-1.5721464041564,-1.08072827448677,0.687422158413218
"189","14_1","13_1","13",14,"Male","Female",23,25,"Stim\r12y12g14b26.jpeg","Stim\r15y16g12b03.jpeg",12,15,12,16,14,12,26,3,-2,1,0,-1,1,0,1,2.029,0.974,0,4.346,1,"grøn","13_14",-2,1,0,0,"Right_lead","Female","Male","surrender",-0.0117996166848813,0.215875578437123,-0.0870793946225977,0.196858646875613,0.911907906863819,2,1,-0.636073076499891,-1.08072827448677,0.687422158413218
"190","14_1","13_1","13",14,"Male","Female",23,25,"Stim\r14y12g04b29.jpeg","Stim\r12y07g07b17.jpeg",14,12,12,7,4,7,29,17,1,-1,0,-1,1,0,0,1.311,1.407,0,3.642,1,"grøn","13_14",3,0,1,0,"Right_lead","Female","Male","stick",-0.0117996166848813,0.215875578437123,-0.0870793946225977,0.196858646875613,0.911907906863819,1,1,-1.08163151172928,0.388386723643683,-0.4200913190303
"191","14_1","13_1","13",14,"Male","Female",23,25,"Stim\r17y22g16b15.jpeg","Stim\r09y15g18b07.jpeg",17,9,22,15,16,18,15,7,2,-2,0,1,1,0,1,2.062,1.306,0,2.071,1,"grøn","13_14",2,0,1,1,"Right_lead","Female","Male","surrender",-0.0117996166848813,0.215875578437123,-0.0870793946225977,0.196858646875613,0.911907906863819,2,2,-1.10905049235878,0.8780917230205,-0.973848057752059
"192","15_2","13_2","13",15,"Male","Male",23,20,"Stim\r08y12g20b03.jpeg","Stim\r10y37g07b02.jpeg",8,10,12,37,20,7,3,2,-1,2,0,1,0,1,1,1.369,5.818,0,2.19,2,"rød","13_15",2,1,0,1,"Right_lead","Male","Male","stick",0.35353460716169,0.191778661429264,0.49805727046021,0.183737437753368,0.958070289906253,1,2,-2.86423637804676,-0.254720303846312,0.729579160503731
"193","15_2","13_2","13",15,"Male","Male",23,20,"Stim\r11y13g22b35.jpeg","Stim\r09y07g06b09.jpeg",11,9,13,7,22,6,35,9,1,-3,-1,0,0,1,1,2.324,2.1,1.507,0,2,"rød","13_15",-2,0,1,0,"Left_lead","Male","Male","surrender",0.35353460716169,0.191778661429264,0.49805727046021,0.183737437753368,1.04376475352122,1,3,-0.437293522133828,0.570088299084604,-1.30367423762142
"194","15_2","13_2","13",15,"Male","Male",23,20,"Stim\r15y16g12b03.jpeg","Stim\r18y19g14b27.jpeg",15,18,16,19,12,14,3,27,-3,3,1,0,0,1,1,1.414,1.327,1.397,0,2,"rød","13_15",3,1,0,1,"Left_lead","Male","Male","surrender",0.35353460716169,0.191778661429264,0.49805727046021,0.183737437753368,1.04376475352122,3,3,-0.950097303072847,-1.07952890677723,1.13622984012876
"195","15_2","13_2","13",15,"Male","Male",23,20,"Stim\r20y04g39b23.jpeg","Stim\r13y24g05b28.jpeg",20,13,4,24,39,5,23,28,-2,3,1,0,1,0,0,2.194,1.223,1.033,0,2,"rød","13_15",-7,1,0,1,"Left_lead","Male","Male","surrender",0.35353460716169,0.191778661429264,0.49805727046021,0.183737437753368,1.04376475352122,2,3,-0.587138782797827,-0.66712460531177,1.13622984012876
"196","15_2","13_2","13",15,"Male","Male",23,20,"Stim\r03y11g01b26.jpeg","Stim\r01y27g01b01.jpeg",3,1,11,27,1,1,26,1,2,-4,-1,0,0,1,1,1.916,1.762,1.135,0,2,"rød","13_15",-2,0,1,0,"Left_lead","Male","Male","surrender",0.35353460716169,0.191778661429264,0.49805727046021,0.183737437753368,1.04376475352122,2,4,-0.574447925445554,0.982492600550062,-1.71032491724645
"197","15_2","13_2","13",15,"Male","Male",23,20,"Stim\r18y19g14b27.jpeg","Stim\r10y03g03b07.jpeg",18,10,19,3,14,3,27,7,2,-2,1,0,0,1,0,2.281,2.061,5.082,0,2,"rød","13_15",-8,0,1,1,"Left_lead","Male","Male","stick",0.35353460716169,0.191778661429264,0.49805727046021,0.183737437753368,1.04376475352122,2,2,-1.09528071118286,0.982492600550062,-0.89702355799639
"198","15_2","13_2","13",15,"Male","Male",23,20,"Stim\r12y12g14b26.jpeg","Stim\r08y12g20b03.jpeg",12,8,12,12,14,20,26,3,-2,3,1,0,1,0,0,2.349,1.345,1.034,0,2,"rød","13_15",-4,1,0,1,"Left_lead","Male","Male","surrender",0.35353460716169,0.191778661429264,0.49805727046021,0.183737437753368,1.04376475352122,2,3,-0.587138782797827,-0.66712460531177,1.13622984012876
"199","15_2","13_2","13",15,"Male","Male",23,20,"Stim\r17y20g40b07.jpeg","Stim\r16y09g06b10.jpeg",17,16,20,9,40,6,7,10,-2,2,0,-1,1,0,1,1.19,1.602,0,3.355,2,"rød","13_15",-1,1,0,0,"Right_lead","Male","Male","surrender",0.35353460716169,0.191778661429264,0.49805727046021,0.183737437753368,0.958070289906253,2,2,-1.09361752616331,-0.66712460531177,0.729579160503731
"200","15_2","13_2","13",15,"Male","Male",23,20,"Stim\r20y14g02b19.jpeg","Stim\r14y10g15b15.jpeg",20,14,14,10,2,15,19,15,2,-2,-1,0,0,1,1,1.05,1.207,1.782,0,2,"blå","13_15",-4,0,1,0,"Left_lead","Male","Male","surrender",0.35353460716169,0.191778661429264,0.49805727046021,0.183737437753368,1.04376475352122,2,2,-1.09528071118286,0.982492600550062,-0.89702355799639
"201","15_2","13_2","13",15,"Male","Male",23,20,"Stim\r17y11g38b07.jpeg","Stim\r10y02g36b05.jpeg",17,10,11,2,38,36,7,5,-3,2,0,-1,1,0,1,1.836,2.132,0,1.224,2,"blå","13_15",-2,1,0,0,"Right_lead","Male","Male","surrender",0.35353460716169,0.191778661429264,0.49805727046021,0.183737437753368,0.958070289906253,3,2,-0.675831055494178,-1.07952890677723,0.729579160503731
"202","15_2","13_2","13",15,"Male","Male",23,20,"Stim\r10y03g03b07.jpeg","Stim\r03y03g02b05.jpeg",10,3,3,3,3,2,7,5,2,-2,-1,0,0,1,1,1.808,3.471,4.164,0,2,"blå","13_15",-2,0,1,0,"Left_lead","Male","Male","surrender",0.35353460716169,0.191778661429264,0.49805727046021,0.183737437753368,1.04376475352122,2,2,-1.09528071118286,0.982492600550062,-0.89702355799639
"203","15_2","13_2","13",15,"Male","Male",23,20,"Stim\r22y02g34b05.jpeg","Stim\r10y27g22b14.jpeg",22,10,2,27,34,22,5,14,2,-2,0,1,1,0,1,1.42,2.496,0,1.27,2,"blå","13_15",9,0,1,1,"Right_lead","Male","Male","surrender",0.35353460716169,0.191778661429264,0.49805727046021,0.183737437753368,0.958070289906253,2,2,-0.913007952929294,0.982492600550062,-0.89702355799639
"204","15_2","13_2","13",15,"Male","Male",23,20,"Stim\r21y01g04b27.jpeg","Stim\r17y07g07b24.jpeg",21,17,1,7,4,7,27,24,-4,2,-1,0,1,0,1,1.68,1.776,1.655,0,2,"blå","13_15",-3,1,0,0,"Left_lead","Male","Male","stick",0.35353460716169,0.191778661429264,0.49805727046021,0.183737437753368,1.04376475352122,4,2,-2.04492300357455,-1.49193320824269,0.729579160503731
"205","15_2","13_2","13",15,"Male","Male",23,20,"Stim\r02y10g14b11.jpeg","Stim\r20y14g02b19.jpeg",2,20,10,14,14,2,11,19,-4,3,0,1,0,1,1,2.308,1.278,0,1.516,2,"blå","13_15",8,1,0,1,"Right_lead","Male","Male","stick",0.35353460716169,0.191778661429264,0.49805727046021,0.183737437753368,0.958070289906253,4,3,-0.761582243662972,-1.49193320824269,1.13622984012876
"206","15_2","13_2","13",15,"Male","Male",23,20,"Stim\r01y27g01b01.jpeg","Stim\r09y02g05b02.jpeg",1,9,27,2,1,5,1,2,4,-2,0,1,1,0,1,2.187,1.55,0,0.929,2,"blå","13_15",1,0,1,1,"Right_lead","Male","Male","surrender",0.35353460716169,0.191778661429264,0.49805727046021,0.183737437753368,0.958070289906253,4,2,-0.496333182464918,1.80730120348098,-0.89702355799639
"207","15_2","13_2","13",15,"Male","Male",23,20,"Stim\r22y23g20b06.jpeg","Stim\r08y12g20b03.jpeg",22,8,23,12,20,20,6,3,1,-1,0,-1,0,1,1,1.314,0.884,0,1.693,2,"blå","13_15",-3,0,1,0,"Right_lead","Male","Male","stick",0.35353460716169,0.191778661429264,0.49805727046021,0.183737437753368,0.958070289906253,1,1,-0.860170045866152,0.570088299084604,-0.49037287837136
"208","15_2","13_2","13",15,"Male","Male",23,20,"Stim\r12y07g07b17.jpeg","Stim\r13y33g08b23.jpeg",12,13,7,33,7,8,17,23,2,-3,-1,0,1,0,0,1.853,1.368,1.425,0,2,"blå","13_15",6,0,1,0,"Left_lead","Male","Male","surrender",0.35353460716169,0.191778661429264,0.49805727046021,0.183737437753368,1.04376475352122,2,3,-0.753633516868937,0.982492600550062,-1.30367423762142
"209","15_2","13_2","13",15,"Male","Male",23,20,"Stim\r16y09g06b10.jpeg","Stim\r06y36g16b14.jpeg",16,6,9,36,6,16,10,14,4,-3,1,0,1,0,1,1.529,2.109,1.574,0,2,"blå","13_15",4,0,1,1,"Left_lead","Male","Male","stick",0.35353460716169,0.191778661429264,0.49805727046021,0.183737437753368,1.04376475352122,4,3,-1.38631350633916,1.80730120348098,-1.30367423762142
"210","15_2","13_2","13",15,"Male","Male",23,20,"Stim\r12y09g30b18.jpeg","Stim\r12y07g07b17.jpeg",12,12,9,7,30,7,18,17,-1,2,1,0,1,0,0,2.475,1.07,1.122,0,2,"gul","13_15",-2,1,0,1,"Left_lead","Male","Male","surrender",0.35353460716169,0.191778661429264,0.49805727046021,0.183737437753368,1.04376475352122,1,2,-0.34913319573224,-0.254720303846312,0.729579160503731
"211","15_2","13_2","13",15,"Male","Male",23,20,"Stim\r15y05g12b10.jpeg","Stim\r09y06g26b32.jpeg",15,9,5,6,12,26,10,32,-2,2,0,-1,0,1,0,1.68,3.125,0,1.136,2,"gul","13_15",1,1,0,0,"Right_lead","Male","Male","surrender",0.35353460716169,0.191778661429264,0.49805727046021,0.183737437753368,0.958070289906253,2,2,-1.09361752616331,-0.66712460531177,0.729579160503731
"212","15_2","13_2","13",15,"Male","Male",23,20,"Stim\r06y14g31b25.jpeg","Stim\r19y10g06b15.jpeg",6,19,14,10,31,6,25,15,-2,3,0,1,1,0,0,1.336,1.415,0,1.558,2,"gul","13_15",-4,1,0,1,"Right_lead","Male","Male","stick",0.35353460716169,0.191778661429264,0.49805727046021,0.183737437753368,0.958070289906253,2,3,-1.7031748358281,-0.66712460531177,1.13622984012876
"213","15_2","13_2","13",15,"Male","Male",23,20,"Stim\r18y19g14b27.jpeg","Stim\r15y16g12b03.jpeg",18,15,19,16,14,12,27,3,-3,2,0,1,1,0,0,2.294,1.321,0,3.185,2,"gul","13_15",-3,1,0,1,"Right_lead","Male","Male","stick",0.35353460716169,0.191778661429264,0.49805727046021,0.183737437753368,0.958070289906253,3,2,-0.675831055494178,-1.07952890677723,0.729579160503731
"214","15_2","13_2","13",15,"Male","Male",23,20,"Stim\r07y02g03b06.jpeg","Stim\r21y01g04b27.jpeg",7,21,2,1,3,4,6,27,2,-1,-1,0,0,1,1,3.598,2.388,1.773,0,2,"gul","13_15",-1,0,1,0,"Left_lead","Male","Male","surrender",0.35353460716169,0.191778661429264,0.49805727046021,0.183737437753368,1.04376475352122,2,1,-2.003562276554,0.982492600550062,-0.49037287837136
"215","15_2","13_2","13",15,"Male","Male",23,20,"Stim\r22y35g09b11.jpeg","Stim\r04y39g24b15.jpeg",22,4,35,39,9,24,11,15,-3,2,-1,0,0,1,0,1.343,1.255,1.297,0,2,"gul","13_15",4,1,0,0,"Left_lead","Male","Male","stick",0.35353460716169,0.191778661429264,0.49805727046021,0.183737437753368,1.04376475352122,3,2,-1.47965973429378,-1.07952890677723,0.729579160503731
"216","15_2","13_2","13",15,"Male","Male",23,20,"Stim\r14y12g04b29.jpeg","Stim\r01y27g01b01.jpeg",14,1,12,27,4,1,29,1,1,-3,-1,0,0,1,1,1.815,1.342,1.08,0,2,"grøn","13_15",-3,0,1,0,"Left_lead","Male","Male","surrender",0.35353460716169,0.191778661429264,0.49805727046021,0.183737437753368,1.04376475352122,1,3,-0.437293522133828,0.570088299084604,-1.30367423762142
"217","15_2","13_2","13",15,"Male","Male",23,20,"Stim\r11y13g22b35.jpeg","Stim\r08y12g20b03.jpeg",11,8,13,12,22,20,35,3,-2,3,0,1,1,0,0,1.156,1.585,0,1.336,2,"grøn","13_15",-2,1,0,1,"Right_lead","Male","Male","stick",0.35353460716169,0.191778661429264,0.49805727046021,0.183737437753368,0.958070289906253,2,3,-1.7031748358281,-0.66712460531177,1.13622984012876
"218","15_2","13_2","13",15,"Male","Male",23,20,"Stim\r12y07g16b25.jpeg","Stim\r21y03g15b37.jpeg",12,21,7,3,16,15,25,37,-3,1,0,-1,1,0,1,1.233,1.129,0,1.02,2,"grøn","13_15",-1,1,0,0,"Right_lead","Male","Male","surrender",0.35353460716169,0.191778661429264,0.49805727046021,0.183737437753368,0.958070289906253,3,1,-0.299138336038407,-1.07952890677723,0.3229284808787
"219","15_2","13_2","13",15,"Male","Male",23,20,"Stim\r04y28g27b06.jpeg","Stim\r09y15g18b07.jpeg",4,9,28,15,27,18,6,7,3,-3,-1,0,0,1,1,2.501,1.229,4.585,0,2,"grøn","13_15",-9,0,1,0,"Left_lead","Male","Male","surrender",0.35353460716169,0.191778661429264,0.49805727046021,0.183737437753368,1.04376475352122,3,3,-1.06997351160405,1.39489690201552,-1.30367423762142
"220","15_2","13_2","13",15,"Male","Male",23,20,"Stim\r06y14g31b25.jpeg","Stim\r02y19g24b04.jpeg",6,2,14,19,31,24,25,4,-2,2,1,0,1,0,0,1.118,1.196,2.081,0,2,"grøn","13_15",-7,1,0,1,"Left_lead","Male","Male","surrender",0.35353460716169,0.191778661429264,0.49805727046021,0.183737437753368,1.04376475352122,2,2,-0.914396465013009,-0.66712460531177,0.729579160503731
"221","15_2","13_2","13",15,"Male","Male",23,20,"Stim\r17y07g07b24.jpeg","Stim\r03y11g01b26.jpeg",17,3,7,11,7,1,24,26,-2,1,-1,0,1,0,1,1.126,2.044,2.503,0,2,"grøn","13_15",-6,1,0,0,"Left_lead","Male","Male","stick",0.35353460716169,0.191778661429264,0.49805727046021,0.183737437753368,1.04376475352122,2,1,-2.06585868021458,-0.66712460531177,0.3229284808787
"222","15_2","13_2","13",15,"Male","Male",23,20,"Stim\r22y35g09b11.jpeg","Stim\r08y23g10b29.jpeg",22,8,35,23,9,10,11,29,2,-3,-1,0,1,0,0,2.074,2.818,1.283,0,2,"grøn","13_15",1,0,1,0,"Left_lead","Male","Male","surrender",0.35353460716169,0.191778661429264,0.49805727046021,0.183737437753368,1.04376475352122,2,3,-0.753633516868937,0.982492600550062,-1.30367423762142
"223","15_2","13_2","13",15,"Male","Male",23,20,"Stim\r04y39g24b15.jpeg","Stim\r10y27g22b14.jpeg",4,10,39,27,24,22,15,14,-2,3,1,0,1,0,0,2.124,1.487,1.206,0,2,"grøn","13_15",-2,1,0,1,"Left_lead","Male","Male","surrender",0.35353460716169,0.191778661429264,0.49805727046021,0.183737437753368,1.04376475352122,2,3,-0.587138782797827,-0.66712460531177,1.13622984012876
"224","15_2","13_2","13",15,"Male","Male",23,20,"Stim\r14y20g16b10.jpeg","Stim\r07y06g08b05.jpeg",14,7,20,6,16,8,10,5,-2,2,0,-1,1,0,1,1.814,1.154,0,1.23,2,"grøn","13_15",-8,1,0,0,"Right_lead","Male","Male","surrender",0.35353460716169,0.191778661429264,0.49805727046021,0.183737437753368,0.958070289906253,2,2,-1.09361752616331,-0.66712460531177,0.729579160503731
"225","15_2","13_2","13",15,"Male","Male",23,20,"Stim\r08y12g20b03.jpeg","Stim\r03y06g12b09.jpeg",8,3,12,6,20,12,3,9,2,-2,0,-1,0,1,1,0.883,0.928,0,1.137,2,"grøn","13_15",-8,0,1,0,"Right_lead","Male","Male","stick",0.35353460716169,0.191778661429264,0.49805727046021,0.183737437753368,0.958070289906253,2,2,-0.913007952929294,0.982492600550062,-0.89702355799639
"226","16_1","15_1","15",16,"Male","Female",20,21,"Stim\r14y12g04b29.jpeg","Stim\r17y12g19b18.jpeg",14,17,12,12,4,19,29,18,2,-2,0,-1,1,0,0,6.732,4.094,0,7.105,1,"rød","15_16",3,0,1,0,"Right_lead","Female","Male","stick",-0.116431536093814,0.220449843847425,-0.0917995613544081,0.2292180179837,1.03977400928596,2,2,-0.827920520202658,0.765641493488777,-0.633890303577968
"227","16_1","15_1","15",16,"Male","Female",20,21,"Stim\r21y03g15b37.jpeg","Stim\r18y19g14b27.jpeg",21,18,3,19,15,14,37,27,3,-4,-1,0,0,1,1,3.184,2.747,3.781,0,1,"rød","15_16",-3,0,1,0,"Left_lead","Male","Female","surrender",-0.116431536093814,0.220449843847425,-0.0917995613544081,0.2292180179837,0.96174744806973,3,4,-0.943112169290224,1.14846224023316,-1.21773663582083
"228","16_1","15_1","15",16,"Male","Female",20,21,"Stim\r01y27g01b01.jpeg","Stim\r04y16g13b13.jpeg",1,4,27,16,1,13,1,13,-2,4,1,0,0,1,1,3.65,1.962,2.554,0,1,"rød","15_16",3,1,0,1,"Left_lead","Male","Female","surrender",-0.116431536093814,0.220449843847425,-0.0917995613544081,0.2292180179837,0.96174744806973,2,4,-0.685046650330212,-0.765641493488777,1.11764869315063
"229","16_1","15_1","15",16,"Male","Female",20,21,"Stim\r16y09g06b10.jpeg","Stim\r17y20g40b07.jpeg",16,17,9,20,6,40,10,7,3,-4,0,1,1,0,1,2.166,2.863,0,3.119,1,"rød","15_16",1,0,1,1,"Right_lead","Female","Male","surrender",-0.116431536093814,0.220449843847425,-0.0917995613544081,0.2292180179837,1.03977400928596,3,4,-1.06031926271568,1.14846224023316,-1.21773663582083
"230","16_1","15_1","15",16,"Male","Female",20,21,"Stim\r11y13g22b35.jpeg","Stim\r14y12g04b29.jpeg",11,14,13,12,22,4,35,29,3,-4,0,1,1,0,1,1.832,1.796,0,2.411,1,"rød","15_16",3,0,1,1,"Right_lead","Female","Male","surrender",-0.116431536093814,0.220449843847425,-0.0917995613544081,0.2292180179837,1.03977400928596,3,4,-1.06031926271568,1.14846224023316,-1.21773663582083
"231","16_1","15_1","15",16,"Male","Female",20,21,"Stim\r15y05g12b10.jpeg","Stim\r13y33g08b23.jpeg",15,13,5,33,12,8,10,23,3,-3,1,0,0,1,0,2.038,2.315,3.075,0,1,"rød","15_16",-2,0,1,1,"Left_lead","Male","Female","stick",-0.116431536093814,0.220449843847425,-0.0917995613544081,0.2292180179837,0.96174744806973,3,3,-1.24048988032768,1.14846224023316,-0.9258134696994
"232","16_1","15_1","15",16,"Male","Female",20,21,"Stim\r09y02g05b02.jpeg","Stim\r08y12g20b03.jpeg",9,8,2,12,5,20,2,3,1,-4,0,-1,0,1,1,3.085,1.649,0,2.083,1,"rød","15_16",-1,0,1,0,"Right_lead","Female","Male","stick",-0.116431536093814,0.220449843847425,-0.0917995613544081,0.2292180179837,1.03977400928596,1,4,-3.18095778814705,0.382820746744388,-1.21773663582083
"233","16_1","15_1","15",16,"Male","Female",20,21,"Stim\r07y14g27b22.jpeg","Stim\r06y19g29b08.jpeg",7,6,14,19,27,29,22,8,-2,2,0,-1,1,0,1,2.527,1.757,0,3.01,1,"rød","15_16",-1,1,0,0,"Right_lead","Female","Male","surrender",-0.116431536093814,0.220449843847425,-0.0917995613544081,0.2292180179837,1.03977400928596,2,2,-0.69719622753908,-0.765641493488777,0.533802360907762
"234","16_1","15_1","15",16,"Male","Female",20,21,"Stim\r11y10g06b19.jpeg","Stim\r14y20g16b10.jpeg",11,14,10,20,6,16,19,10,4,-2,0,1,1,0,1,1.654,1.881,0,4.922,1,"rød","15_16",3,0,1,1,"Right_lead","Female","Male","surrender",-0.116431536093814,0.220449843847425,-0.0917995613544081,0.2292180179837,1.03977400928596,4,2,-0.413960260101329,1.53128298697755,-0.633890303577968
"235","16_1","15_1","15",16,"Male","Female",20,21,"Stim\r17y20g40b07.jpeg","Stim\r14y20g16b10.jpeg",17,14,20,20,40,16,7,10,-2,4,1,0,1,0,0,2.774,3.386,1.804,0,1,"rød","15_16",-3,1,0,1,"Left_lead","Male","Female","surrender",-0.116431536093814,0.220449843847425,-0.0917995613544081,0.2292180179837,0.96174744806973,2,4,-0.685046650330212,-0.765641493488777,1.11764869315063
"236","16_1","15_1","15",16,"Male","Female",20,21,"Stim\r08y23g10b29.jpeg","Stim\r11y26g25b38.jpeg",8,11,23,26,10,25,29,38,-2,2,-1,0,0,1,0,3.816,3.764,1.897,0,1,"rød","15_16",3,1,0,0,"Left_lead","Male","Female","stick",-0.116431536093814,0.220449843847425,-0.0917995613544081,0.2292180179837,0.96174744806973,2,2,-1.43431642412888,-0.765641493488777,0.533802360907762
"237","16_1","15_1","15",16,"Male","Female",20,21,"Stim\r05y28g23b30.jpeg","Stim\r04y39g24b15.jpeg",5,4,28,39,23,24,30,15,-2,2,-1,0,1,0,1,2.831,3.011,6.564,0,1,"rød","15_16",-1,1,0,0,"Left_lead","Male","Female","stick",-0.116431536093814,0.220449843847425,-0.0917995613544081,0.2292180179837,0.96174744806973,2,2,-1.43431642412888,-0.765641493488777,0.533802360907762
"238","16_1","15_1","15",16,"Male","Female",20,21,"Stim\r05y40g33b16.jpeg","Stim\r07y14g27b22.jpeg",5,7,40,14,33,27,16,22,2,-2,0,-1,1,0,0,3.012,2.992,0,3.024,1,"rød","15_16",2,0,1,0,"Right_lead","Female","Male","stick",-0.116431536093814,0.220449843847425,-0.0917995613544081,0.2292180179837,1.03977400928596,2,2,-0.827920520202658,0.765641493488777,-0.633890303577968
"239","16_1","15_1","15",16,"Male","Female",20,21,"Stim\r06y14g31b25.jpeg","Stim\r20y04g39b23.jpeg",6,20,14,4,31,39,25,23,3,-4,1,0,0,1,0,1.437,1.616,1.698,0,1,"blå","15_16",-2,0,1,1,"Left_lead","Male","Female","stick",-0.116431536093814,0.220449843847425,-0.0917995613544081,0.2292180179837,0.96174744806973,3,4,-0.943112169290224,1.14846224023316,-1.21773663582083
"240","16_1","15_1","15",16,"Male","Female",20,21,"Stim\r17y07g07b24.jpeg","Stim\r03y11g01b26.jpeg",17,3,7,11,7,1,24,26,-3,4,1,0,0,1,1,2.084,2.362,3.35,0,1,"blå","15_16",2,1,0,1,"Left_lead","Male","Female","surrender",-0.116431536093814,0.220449843847425,-0.0917995613544081,0.2292180179837,0.96174744806973,3,4,-1.02756997549532,-1.14846224023316,1.11764869315063
"241","16_1","15_1","15",16,"Male","Female",20,21,"Stim\r06y36g16b14.jpeg","Stim\r05y40g33b16.jpeg",6,5,36,40,16,33,14,16,4,-4,1,0,1,0,1,1.858,1.571,2.275,0,1,"blå","15_16",2,0,1,1,"Left_lead","Male","Female","stick",-0.116431536093814,0.220449843847425,-0.0917995613544081,0.2292180179837,0.96174744806973,4,4,-1.25748289238696,1.53128298697755,-1.21773663582083
"242","16_1","15_1","15",16,"Male","Female",20,21,"Stim\r03y11g01b26.jpeg","Stim\r08y23g10b29.jpeg",3,8,11,23,1,10,26,29,-2,4,0,1,0,1,1,1.432,1.294,0,3.94,1,"blå","15_16",3,1,0,1,"Right_lead","Female","Male","stick",-0.116431536093814,0.220449843847425,-0.0917995613544081,0.2292180179837,1.03977400928596,2,4,-1.45975460140995,-0.765641493488777,1.11764869315063
"243","16_1","15_1","15",16,"Male","Female",20,21,"Stim\r08y12g20b03.jpeg","Stim\r10y02g36b05.jpeg",8,10,12,2,20,36,3,5,2,-2,0,1,1,0,1,1.545,4.708,0,2.781,1,"blå","15_16",2,0,1,1,"Right_lead","Female","Male","surrender",-0.116431536093814,0.220449843847425,-0.0917995613544081,0.2292180179837,1.03977400928596,2,2,-0.827920520202658,0.765641493488777,-0.633890303577968
"244","16_1","15_1","15",16,"Male","Female",20,21,"Stim\r06y19g29b08.jpeg","Stim\r10y02g36b05.jpeg",6,10,19,2,29,36,8,5,-1,4,1,0,1,0,0,2.299,3.911,2.182,0,1,"blå","15_16",-3,1,0,1,"Left_lead","Male","Female","surrender",-0.116431536093814,0.220449843847425,-0.0917995613544081,0.2292180179837,0.96174744806973,1,4,-0.342523325165106,-0.382820746744388,1.11764869315063
"245","16_1","15_1","15",16,"Male","Female",20,21,"Stim\r14y12g04b29.jpeg","Stim\r09y06g26b32.jpeg",14,9,12,6,4,26,29,32,-4,4,0,-1,0,1,0,1.766,2.361,0,5.112,1,"blå","15_16",3,1,0,0,"Right_lead","Female","Male","surrender",-0.116431536093814,0.220449843847425,-0.0917995613544081,0.2292180179837,1.03977400928596,4,4,-0.729877300704975,-1.53128298697755,1.11764869315063
"246","16_1","15_1","15",16,"Male","Female",20,21,"Stim\r17y20g40b07.jpeg","Stim\r05y40g33b16.jpeg",17,5,20,40,40,33,7,16,2,-2,1,0,1,0,1,2.028,1.858,2.831,0,1,"blå","15_16",9,0,1,1,"Left_lead","Male","Female","stick",-0.116431536093814,0.220449843847425,-0.0917995613544081,0.2292180179837,0.96174744806973,2,2,-1.20784540979274,0.765641493488777,-0.633890303577968
"247","16_1","15_1","15",16,"Male","Female",20,21,"Stim\r10y13g07b36.jpeg","Stim\r21y03g15b37.jpeg",10,21,13,3,7,15,36,37,-3,4,1,0,0,1,1,1.781,1.277,1.639,0,1,"blå","15_16",1,1,0,1,"Left_lead","Male","Female","surrender",-0.116431536093814,0.220449843847425,-0.0917995613544081,0.2292180179837,0.96174744806973,3,4,-1.02756997549532,-1.14846224023316,1.11764869315063
"248","16_1","15_1","15",16,"Male","Female",20,21,"Stim\r22y23g20b06.jpeg","Stim\r01y27g01b01.jpeg",22,1,23,27,20,1,6,1,-3,4,0,1,0,1,1,2.171,1.249,0,1.813,1,"gul","15_16",4,1,0,1,"Right_lead","Female","Male","stick",-0.116431536093814,0.220449843847425,-0.0917995613544081,0.2292180179837,1.03977400928596,3,4,-0.9731697342733,-1.14846224023316,1.11764869315063
"249","16_1","15_1","15",16,"Male","Female",20,21,"Stim\r11y10g06b19.jpeg","Stim\r12y07g07b17.jpeg",11,12,10,7,6,7,19,17,2,-4,-1,0,0,1,1,2.581,1.692,3.593,0,1,"gul","15_16",-3,0,1,0,"Left_lead","Male","Female","surrender",-0.116431536093814,0.220449843847425,-0.0917995613544081,0.2292180179837,0.96174744806973,2,4,-0.628741446193482,0.765641493488777,-1.21773663582083
"250","16_1","15_1","15",16,"Male","Female",20,21,"Stim\r16y09g06b10.jpeg","Stim\r12y07g16b25.jpeg",16,12,9,7,6,16,10,25,2,-4,0,-1,0,1,1,2.1,1.429,0,1.483,1,"gul","15_16",-2,0,1,0,"Right_lead","Female","Male","stick",-0.116431536093814,0.220449843847425,-0.0917995613544081,0.2292180179837,1.03977400928596,2,4,-1.59047889407353,0.765641493488777,-1.21773663582083
"251","16_1","15_1","15",16,"Male","Female",20,21,"Stim\r17y07g07b24.jpeg","Stim\r08y09g09b11.jpeg",17,8,7,9,7,9,24,11,-3,3,0,-1,0,1,0,1.972,2.418,0,2.447,1,"gul","15_16",2,1,0,0,"Right_lead","Female","Male","surrender",-0.116431536093814,0.220449843847425,-0.0917995613544081,0.2292180179837,1.03977400928596,3,3,-0.718983609649677,-1.14846224023316,0.825725527029195
"252","16_1","15_1","15",16,"Male","Female",20,21,"Stim\r17y12g19b18.jpeg","Stim\r15y16g12b03.jpeg",17,15,12,16,19,12,18,3,-2,4,0,1,0,1,1,1.787,1.183,0,0.98,1,"gul","15_16",4,1,0,1,"Right_lead","Female","Male","stick",-0.116431536093814,0.220449843847425,-0.0917995613544081,0.2292180179837,1.03977400928596,2,4,-1.45975460140995,-0.765641493488777,1.11764869315063
"253","16_1","15_1","15",16,"Male","Female",20,21,"Stim\r04y39g24b15.jpeg","Stim\r05y40g33b16.jpeg",4,5,39,40,24,33,15,16,-3,4,0,1,0,1,1,1.949,1.23,0,0.847,1,"gul","15_16",1,1,0,1,"Right_lead","Female","Male","stick",-0.116431536093814,0.220449843847425,-0.0917995613544081,0.2292180179837,1.03977400928596,3,4,-0.9731697342733,-1.14846224023316,1.11764869315063
"254","16_1","15_1","15",16,"Male","Female",20,21,"Stim\r12y07g07b17.jpeg","Stim\r14y10g15b15.jpeg",12,14,7,10,7,15,17,15,-3,2,0,1,0,1,1,2.238,1.185,0,1.061,1,"gul","15_16",3,1,0,1,"Right_lead","Female","Male","stick",-0.116431536093814,0.220449843847425,-0.0917995613544081,0.2292180179837,1.03977400928596,3,2,-0.464797485026054,-1.14846224023316,0.533802360907762
"255","16_1","15_1","15",16,"Male","Female",20,21,"Stim\r09y15g18b07.jpeg","Stim\r11y13g22b35.jpeg",9,11,15,13,18,22,7,35,-3,4,0,1,0,1,1,1.685,1.364,0,0.897,1,"grøn","15_16",4,1,0,1,"Right_lead","Female","Male","stick",-0.116431536093814,0.220449843847425,-0.0917995613544081,0.2292180179837,1.03977400928596,3,4,-0.9731697342733,-1.14846224023316,1.11764869315063
"256","16_1","15_1","15",16,"Male","Female",20,21,"Stim\r04y39g24b15.jpeg","Stim\r21y03g15b37.jpeg",4,21,39,3,24,15,15,37,2,-4,-1,0,0,1,1,1.604,1.35,1.796,0,1,"grøn","15_16",-9,0,1,0,"Left_lead","Male","Female","surrender",-0.116431536093814,0.220449843847425,-0.0917995613544081,0.2292180179837,0.96174744806973,2,4,-0.628741446193482,0.765641493488777,-1.21773663582083
"257","16_1","15_1","15",16,"Male","Female",20,21,"Stim\r10y13g07b36.jpeg","Stim\r17y22g16b15.jpeg",10,17,13,22,7,16,36,15,3,-3,0,-1,1,0,0,1.493,1.326,0,1.281,1,"grøn","15_16",9,0,1,0,"Right_lead","Female","Male","stick",-0.116431536093814,0.220449843847425,-0.0917995613544081,0.2292180179837,1.03977400928596,3,3,-0.806133138092062,1.14846224023316,-0.9258134696994
"258","16_1","15_1","15",16,"Male","Female",20,21,"Stim\r08y23g10b29.jpeg","Stim\r10y13g07b36.jpeg",8,10,23,13,10,7,29,36,-1,3,1,0,1,0,0,1.666,1.398,1.311,0,1,"grøn","15_16",-3,1,0,1,"Left_lead","Male","Female","surrender",-0.116431536093814,0.220449843847425,-0.0917995613544081,0.2292180179837,0.96174744806973,1,3,-0.463617430021457,-0.382820746744388,0.825725527029195
"259","16_1","15_1","15",16,"Male","Female",20,21,"Stim\r15y05g12b10.jpeg","Stim\r11y14g08b23.jpeg",15,11,5,14,12,8,10,23,2,-2,0,1,0,1,0,1.223,2.016,0,1.64,1,"grøn","15_16",-4,0,1,1,"Right_lead","Female","Male","surrender",-0.116431536093814,0.220449843847425,-0.0917995613544081,0.2292180179837,1.03977400928596,2,2,-0.827920520202658,0.765641493488777,-0.633890303577968
"260","16_1","15_1","15",16,"Male","Female",20,21,"Stim\r12y12g14b26.jpeg","Stim\r12y07g16b25.jpeg",12,12,12,7,14,16,26,25,-2,2,0,-1,0,1,0,2.564,2.026,0,2.528,1,"grøn","15_16",2,1,0,0,"Right_lead","Female","Male","surrender",-0.116431536093814,0.220449843847425,-0.0917995613544081,0.2292180179837,1.03977400928596,2,2,-0.69719622753908,-0.765641493488777,0.533802360907762
"261","16_2","14_2","14",16,"Female","Female",25,21,"Stim\r17y22g16b15.jpeg","Stim\r15y16g12b03.jpeg",17,15,22,16,16,12,15,3,2,-4,-1,0,0,1,1,1.322,1.113,1.97,0,2,"rød","14_16",-2,0,1,0,"Left_lead","Female","Female","surrender",0.270765566684272,0.219949314512486,0.448000717904816,0.21583659581992,1.01905477927384,2,4,-0.705293476251531,1.01142326598562,-1.43404596815654
"262","16_2","14_2","14",16,"Female","Female",25,21,"Stim\r21y03g15b37.jpeg","Stim\r22y35g09b11.jpeg",21,22,3,35,15,9,37,11,2,-2,1,0,1,0,1,1.439,1.969,2.198,0,2,"rød","14_16",1,0,1,1,"Left_lead","Female","Female","stick",0.270765566684272,0.219949314512486,0.448000717904816,0.21583659581992,1.01905477927384,2,2,-1.33433900912452,1.01142326598562,-0.757995726025602
"263","16_2","14_2","14",16,"Female","Female",25,21,"Stim\r03y03g02b05.jpeg","Stim\r07y14g27b22.jpeg",3,7,3,14,2,27,5,22,-1,4,1,0,0,1,1,2.012,2.224,1.48,0,2,"rød","14_16",4,1,0,1,"Left_lead","Female","Female","surrender",0.270765566684272,0.219949314512486,0.448000717904816,0.21583659581992,1.01905477927384,1,4,-0.298612157283914,-0.379283724744608,1.27015500036723
"264","16_2","14_2","14",16,"Female","Female",25,21,"Stim\r12y07g16b25.jpeg","Stim\r14y20g16b10.jpeg",12,14,7,20,16,16,25,10,2,-2,1,0,1,0,1,1.182,1.98,1.708,0,2,"rød","14_16",2,0,1,1,"Left_lead","Female","Female","stick",0.270765566684272,0.219949314512486,0.448000717904816,0.21583659581992,1.01905477927384,2,2,-1.33433900912452,1.01142326598562,-0.757995726025602
"265","16_2","14_2","14",16,"Female","Female",25,21,"Stim\r11y10g06b19.jpeg","Stim\r10y03g03b07.jpeg",11,10,10,3,6,3,19,7,2,-1,0,1,0,1,0,1.195,2.591,0,1.758,2,"rød","14_16",-1,0,1,1,"Right_lead","Female","Female","surrender",0.270765566684272,0.219949314512486,0.448000717904816,0.21583659581992,0.98130151620758,2,1,-0.415227352468379,1.01142326598562,-0.419970604960131
"266","16_2","14_2","14",16,"Female","Female",25,21,"Stim\r14y10g15b15.jpeg","Stim\r15y05g12b10.jpeg",14,15,10,5,15,12,15,10,-2,4,1,0,0,1,1,1.13,1.328,1.264,0,2,"rød","14_16",1,1,0,1,"Left_lead","Female","Female","surrender",0.270765566684272,0.219949314512486,0.448000717904816,0.21583659581992,1.01905477927384,2,4,-0.663582571742032,-0.842852721654685,1.27015500036723
"267","16_2","14_2","14",16,"Female","Female",25,21,"Stim\r07y02g03b06.jpeg","Stim\r09y07g06b09.jpeg",7,9,2,7,3,6,6,9,-1,2,0,-1,0,1,0,1.089,2.437,0,2.611,2,"rød","14_16",2,1,0,0,"Right_lead","Female","Female","surrender",0.270765566684272,0.219949314512486,0.448000717904816,0.21583659581992,0.98130151620758,1,2,-1.56638611012462,-0.379283724744608,0.594104758236283
"268","16_2","14_2","14",16,"Female","Female",25,21,"Stim\r22y02g34b05.jpeg","Stim\r19y10g06b15.jpeg",22,19,2,10,34,6,5,15,-1,4,1,0,1,0,0,3.105,1.634,1.556,0,2,"rød","14_16",-3,1,0,1,"Left_lead","Female","Female","surrender",0.270765566684272,0.219949314512486,0.448000717904816,0.21583659581992,1.01905477927384,1,4,-0.298612157283914,-0.379283724744608,1.27015500036723
"269","16_2","14_2","14",16,"Female","Female",25,21,"Stim\r03y03g02b05.jpeg","Stim\r17y11g38b07.jpeg",3,17,3,11,2,38,5,7,2,-4,0,-1,1,0,0,1.061,1.507,0,1.464,2,"blå","14_16",2,0,1,0,"Right_lead","Female","Female","stick",0.270765566684272,0.219949314512486,0.448000717904816,0.21583659581992,0.98130151620758,2,4,-1.41784949623349,1.01142326598562,-1.43404596815654
"270","16_2","14_2","14",16,"Female","Female",25,21,"Stim\r06y19g29b08.jpeg","Stim\r18y13g28b06.jpeg",6,18,19,13,29,28,8,6,-1,1,1,0,1,0,0,3.342,1.471,2.048,0,2,"blå","14_16",-2,1,0,1,"Left_lead","Female","Female","surrender",0.270765566684272,0.219949314512486,0.448000717904816,0.21583659581992,1.01905477927384,1,1,-1.48111630012822,-0.379283724744608,0.256079637170812
"271","16_2","14_2","14",16,"Female","Female",25,21,"Stim\r10y07g11b10.jpeg","Stim\r22y23g20b06.jpeg",10,22,7,23,11,20,10,6,2,-2,0,1,0,1,0,2.647,1.376,0,2.561,2,"blå","14_16",-4,0,1,1,"Right_lead","Female","Female","surrender",0.270765566684272,0.219949314512486,0.448000717904816,0.21583659581992,0.98130151620758,2,2,-0.749434733723416,1.01142326598562,-0.757995726025602
"272","16_2","14_2","14",16,"Female","Female",25,21,"Stim\r04y39g24b15.jpeg","Stim\r12y07g07b17.jpeg",4,12,39,7,24,7,15,17,-2,1,-1,0,0,1,0,1.144,1.291,1.944,0,2,"blå","14_16",2,1,0,0,"Left_lead","Female","Female","stick",0.270765566684272,0.219949314512486,0.448000717904816,0.21583659581992,1.01905477927384,2,1,-3.29136955584048,-0.842852721654685,0.256079637170812
